; generated by PrusaSlicer 2.1.0+win64 on 2020-10-30 at 19:37:19 UTC

; 

; external perimeters extrusion width = 0.45mm
; perimeters extrusion width = 0.45mm
; infill extrusion width = 0.45mm
; solid infill extrusion width = 0.45mm
; top infill extrusion width = 0.40mm
; first layer extrusion width = 0.42mm

M73 P0 R54
M73 Q0 S54
M201 X1000 Y1000 Z1000 E5000 ; sets maximum accelerations, mm/sec^2
M203 X200 Y200 Z12 E120 ; sets maximum feedrates, mm/sec
M204 P1250 R1250 T1250 ; sets acceleration (P, T) and retract acceleration (R), mm/sec^2
M205 X8.00 Y8.00 Z0.40 E1.50 ; sets the jerk limits, mm/sec
M205 S0 T0 ; sets the minimum extruding and travel feed rate, mm/sec
M107
M862.3 P "MK3SMMU2S" ; printer model check
M862.1 P0.4 ; nozzle diameter check
M115 U3.8.1 ; tell printer latest fw version
G90 ; use absolute coordinates
M83 ; extruder relative mode
M104 S215 ; set extruder temp
M140 S60 ; set bed temp
Tx
M190 S60 ; wait for bed temp
M109 S215 ; wait for extruder temp
G28 W ; home all without mesh bed level
G80 ; mesh bed leveling

G21 ; set units to millimeters

;go outside print area
G1 Y-3.0 F1000.0
G1 Z0.4 F1000.0
; select extruder
Tc
; purge line
G1 X55.0 F2000.0
G1 Z0.3 F1000.0
G92 E0.0
G1 X240.0 E25.0 F2200.0
M73 Q0 S54
M73 P0 R53
G1 Y-2.0 F1000.0
G1 X55.0 E25 F1400.0
G1 Z0.20 F1000.0
G1 X5.0 E4.0 F1000.0

M221 S95
G92 E0.0
G21 ; set units to millimeters
G90 ; use absolute coordinates
M83 ; use relative distances for extrusion
M900 K30 ; Filament gcode
;BEFORE_LAYER_CHANGE
G92 E0.0
;0.2


G1 E-0.80000 F2100.00000
G1 Z0.600 F10800.000
;AFTER_LAYER_CHANGE
;0.2
G1 X125.000 Y159.630
G1 Z0.200
G1 E0.80000 F2100.00000
M204 S1000
G1 F1200
G1 X124.200 Y159.478 E0.02552
G1 X123.511 Y159.045 E0.02552
G1 X82.342 Y120.051 E1.77795
G1 X81.945 Y119.485 E0.02168
G1 X81.745 Y118.819 E0.02179
G1 X81.650 Y114.869 E0.12389
G1 X81.707 Y113.396 E0.04621
G1 X82.130 Y109.442 E0.12467
G1 X82.942 Y105.585 E0.12359
G1 X83.342 Y104.160 E0.04642
G1 X84.623 Y100.490 E0.12187
G1 X86.326 Y96.846 E0.12614
G1 X87.052 Y95.541 E0.04681
G1 X89.050 Y92.388 E0.11706
G1 X91.626 Y89.107 E0.13078
G1 X121.607 Y52.168 E1.49166
G1 X122.475 Y51.397 E0.03642
G1 X123.351 Y50.864 E0.03215
G1 X124.373 Y50.462 E0.03442
G1 X125.004 Y50.370 E0.01998
G1 X125.634 Y50.464 E0.01998
G1 X126.658 Y50.870 E0.03454
G1 X127.525 Y51.397 E0.03180
G1 X128.387 Y52.164 E0.03619
G1 X158.374 Y89.110 E1.49195
G1 X160.949 Y92.388 E0.13069
G1 X162.947 Y95.543 E0.11711
G1 X163.673 Y96.847 E0.04676
G1 X165.376 Y100.492 E0.12618
G1 X166.656 Y104.158 E0.12174
G1 X167.057 Y105.587 E0.04652
G1 X167.868 Y109.438 E0.12339
G1 X168.292 Y113.393 E0.12473
G1 X168.350 Y114.869 E0.04632
G1 X168.253 Y118.820 E0.12391
G1 X168.054 Y119.482 E0.02168
G1 X167.656 Y120.052 E0.02179
G1 X126.489 Y159.045 E1.77786
G1 X125.800 Y159.478 E0.02552
G1 X125.059 Y159.618 E0.02364
G1 F8640
G1 X124.200 Y159.478 E-0.20090
G1 X123.511 Y159.045 E-0.18794
G1 X122.344 Y157.940 E-0.37117
G1 E-0.04000 F2100.00000
G1 Z0.800 F10800.000
G1 X124.884 Y156.057
G1 Z0.200
G1 E0.80000 F2100.00000
G1 F1200
G1 X111.839 Y133.257 E0.82362
G1 X110.531 Y130.493 E0.09587
G1 X109.680 Y127.588 E0.09493
G1 X109.638 Y127.417 E0.00553
G1 X109.270 Y124.414 E0.09486
G1 X109.391 Y121.199 E0.10086
G1 X109.947 Y118.420 E0.08886
G1 X110.052 Y118.035 E0.01251
G1 X111.040 Y115.379 E0.08888
G1 X111.114 Y115.219 E0.00552
G1 X112.777 Y112.289 E0.10563
G1 X112.161 Y111.589 E0.02924
G1 X109.313 Y112.939 E0.09883
G1 X109.098 Y113.063 E0.00775
G1 X106.708 Y114.700 E0.09084
G1 X104.590 Y116.679 E0.09088
G1 X102.669 Y119.127 E0.09759
G1 X101.249 Y121.667 E0.09123
G1 X100.238 Y124.367 E0.09040
G1 X100.167 Y124.605 E0.00778
G1 X99.591 Y127.437 E0.09062
G1 X99.450 Y130.320 E0.09049
G1 X99.480 Y130.769 E0.01409
G1 X99.177 Y130.249 E0.01887
G1 X97.995 Y127.469 E0.09471
G1 X97.215 Y124.569 E0.09416
G1 X96.835 Y121.383 E0.10059
G1 X96.904 Y118.572 E0.08815
G1 X96.943 Y118.163 E0.01291
G1 X97.413 Y115.391 E0.08813
G1 X97.459 Y115.212 E0.00581
G1 X98.388 Y112.346 E0.09446
G1 X99.709 Y109.638 E0.09448
G1 X101.514 Y106.989 E0.10049
G1 X103.557 Y104.763 E0.09473
G1 X106.286 Y102.518 E0.11079
G1 X105.998 Y101.736 E0.02614
G1 X102.277 Y101.798 E0.11670
G1 X99.094 Y102.341 E0.10122
G1 X98.837 Y102.406 E0.00832
G1 X95.786 Y103.452 E0.10112
G1 X92.918 Y104.956 E0.10153
G1 X92.695 Y105.097 E0.00827
G1 X90.105 Y107.042 E0.10156
G1 X87.850 Y109.348 E0.10112
G1 X87.681 Y109.553 E0.00833
G1 X85.823 Y112.192 E0.10119
G1 X84.447 Y114.961 E0.09695
G1 X84.438 Y114.319 E0.02012
G1 X84.448 Y114.054 E0.00832
G1 X84.839 Y110.157 E0.12281
G1 X84.927 Y109.599 E0.01769
G1 X85.761 Y105.770 E0.12289
G1 X85.832 Y105.514 E0.00831
G1 X87.193 Y101.539 E0.13174
G1 X88.990 Y97.742 E0.13171
G1 X91.195 Y94.175 E0.13150
G1 X91.342 Y93.953 E0.00833
G1 X93.955 Y90.659 E0.13184
G1 X94.134 Y90.464 E0.00829
G1 X97.114 Y87.496 E0.13188
G1 X100.390 Y84.890 E0.13124
G1 X104.183 Y82.527 E0.14012
G1 X107.976 Y80.726 E0.13165
G1 X111.949 Y79.359 E0.13175
G1 X112.204 Y79.287 E0.00830
G1 X116.349 Y78.385 E0.13300
G1 X117.199 Y78.176 E0.02745
G1 X118.042 Y77.816 E0.02874
G1 X118.813 Y77.321 E0.02874
G1 X119.493 Y76.709 E0.02867
G1 X120.065 Y75.994 E0.02872
G1 X120.512 Y75.193 E0.02874
G1 X120.823 Y74.333 E0.02869
G1 X120.984 Y73.455 E0.02797
G1 X122.722 Y56.082 E0.54745
G1 X122.832 Y55.489 E0.01892
G1 X123.032 Y54.947 E0.01811
G1 X123.320 Y54.449 E0.01803
G1 X123.691 Y54.004 E0.01817
G1 X124.131 Y53.627 E0.01817
G1 X124.627 Y53.332 E0.01811
G1 X125.000 Y53.188 E0.01253
G1 X125.372 Y53.332 E0.01250
G1 X125.868 Y53.627 E0.01810
G1 X126.304 Y54.000 E0.01798
G1 X126.710 Y54.504 E0.02028
G1 X126.967 Y54.948 E0.01611
G1 X127.168 Y55.490 E0.01812
G1 X127.278 Y56.082 E0.01888
G1 X129.014 Y73.455 E0.54744
G1 X129.175 Y74.333 E0.02797
G1 X129.486 Y75.193 E0.02869
G1 X129.933 Y75.994 E0.02874
G1 X130.505 Y76.709 E0.02872
G1 X131.185 Y77.322 E0.02869
G1 X131.959 Y77.816 E0.02878
G1 X132.799 Y78.176 E0.02867
G1 X133.649 Y78.385 E0.02746
G1 X137.792 Y79.287 E0.13294
G1 X138.047 Y79.359 E0.00829
G1 X142.022 Y80.726 E0.13181
G1 X145.815 Y82.527 E0.13165
G1 X149.608 Y84.890 E0.14012
G1 X152.883 Y87.496 E0.13124
G1 X155.864 Y90.464 E0.13188
G1 X156.043 Y90.659 E0.00830
G1 X158.480 Y93.727 E0.12285
G1 X158.811 Y94.184 E0.01769
G1 X161.008 Y97.742 E0.13111
G1 X162.805 Y101.539 E0.13171
G1 X164.166 Y105.514 E0.13174
G1 X164.238 Y105.770 E0.00831
G1 X165.074 Y109.610 E0.12324
G1 X165.126 Y109.871 E0.00834
G1 X165.552 Y114.055 E0.13185
G1 X165.562 Y114.319 E0.00830
G1 X165.552 Y114.968 E0.02034
G1 X164.177 Y112.192 E0.09714
G1 X162.317 Y109.553 E0.10123
G1 X162.148 Y109.348 E0.00830
G1 X160.060 Y107.206 E0.09380
G1 X159.699 Y106.888 E0.01510
G1 X157.303 Y105.097 E0.09379
G1 X157.079 Y104.956 E0.00828
G1 X154.212 Y103.452 E0.10152
G1 X151.163 Y102.406 E0.10109
G1 X150.905 Y102.341 E0.00832
G1 X147.721 Y101.798 E0.10127
G1 X144.110 Y101.738 E0.11325
G1 X143.790 Y102.583 E0.02835
G1 X146.441 Y104.763 E0.10760
G1 X148.482 Y106.989 E0.09470
G1 X150.289 Y109.638 E0.10053
G1 X151.610 Y112.346 E0.09448
G1 X152.587 Y115.391 E0.10026
G1 X153.084 Y118.361 E0.09444
G1 X153.161 Y121.383 E0.09478
G1 X152.783 Y124.569 E0.10059
G1 X152.003 Y127.469 E0.09415
G1 X150.819 Y130.249 E0.09473
G1 X150.518 Y130.766 E0.01876
G1 X150.548 Y130.316 E0.01413
G1 X150.405 Y127.425 E0.09075
G1 X149.830 Y124.600 E0.09039
G1 X149.758 Y124.362 E0.00779
G1 X148.745 Y121.663 E0.09040
G1 X147.326 Y119.125 E0.09119
G1 X145.557 Y116.848 E0.09039
G1 X145.391 Y116.663 E0.00780
G1 X143.279 Y114.691 E0.09060
G1 X140.895 Y113.060 E0.09057
G1 X140.680 Y112.937 E0.00778
G1 X138.078 Y111.706 E0.09025
G1 X136.388 Y111.277 E0.05466
G1 X134.660 Y111.140 E0.05436
G1 X134.465 Y111.141 E0.00612
G1 X132.739 Y111.325 E0.05441
G1 X131.048 Y111.805 E0.05512
G1 X129.471 Y112.565 E0.05489
G1 X128.031 Y113.589 E0.05539
G1 X126.794 Y114.841 E0.05520
G1 X125.717 Y116.408 E0.05962
G1 X124.992 Y118.013 E0.05520
G1 X124.553 Y119.715 E0.05511
G1 X124.411 Y121.468 E0.05515
G1 X124.568 Y123.221 E0.05519
G1 X125.073 Y125.054 E0.05961
G1 X125.832 Y126.644 E0.05523
G1 X126.849 Y128.077 E0.05510
G1 X128.097 Y129.316 E0.05516
G1 X129.538 Y130.326 E0.05516
G1 X131.266 Y131.122 E0.05966
G1 X132.967 Y131.567 E0.05513
G1 X133.883 Y131.646 E0.02882
G1 X124.905 Y156.001 E0.81387
G1 F8640
G1 X123.266 Y153.147 E-0.76000
G1 E-0.04000 F2100.00000
G1 Z0.800 F10800.000
G1 X144.369 Y102.119
G1 Z0.200
G1 E0.80000 F2100.00000
G1 F1200
G1 X144.238 Y102.464 E0.01156
G1 X146.701 Y104.488 E0.09995
G1 X148.770 Y106.745 E0.09599
G1 X148.900 Y106.912 E0.00664
G1 X150.616 Y109.448 E0.09602
G1 X151.957 Y112.198 E0.09591
G1 X152.903 Y115.107 E0.09593
G1 X152.956 Y115.313 E0.00665
G1 X153.461 Y118.329 E0.09588
G1 X153.538 Y121.390 E0.09601
G1 X153.154 Y124.641 E0.10265
G1 X152.361 Y127.592 E0.09581
G1 X151.161 Y130.409 E0.09600
G1 X151.063 Y130.597 E0.00664
G1 X149.959 Y132.399 E0.06626
G1 X150.164 Y130.537 E0.05873
G1 X150.170 Y130.319 E0.00684
G1 X150.030 Y127.477 E0.08921
G1 X149.464 Y124.692 E0.08911
G1 X149.401 Y124.483 E0.00685
G1 X148.402 Y121.822 E0.08912
G1 X147.010 Y119.334 E0.08940
G1 X145.266 Y117.090 E0.08910
G1 X145.121 Y116.926 E0.00686
G1 X143.043 Y114.986 E0.08916
G1 X140.695 Y113.380 E0.08919
G1 X140.505 Y113.271 E0.00685
G1 X137.949 Y112.062 E0.08865
G1 X136.326 Y111.650 E0.05251
G1 X134.646 Y111.517 E0.05284
G1 X134.486 Y111.518 E0.00502
G1 X132.811 Y111.696 E0.05282
G1 X131.182 Y112.159 E0.05309
G1 X129.659 Y112.892 E0.05300
G1 X128.277 Y113.876 E0.05321
G1 X127.086 Y115.083 E0.05314
G1 X126.047 Y116.594 E0.05752
G1 X125.349 Y118.138 E0.05313
G1 X124.927 Y119.778 E0.05308
G1 X124.789 Y121.466 E0.05312
G1 X124.941 Y123.154 E0.05312
G1 X125.428 Y124.922 E0.05750
G1 X126.158 Y126.452 E0.05317
G1 X127.137 Y127.832 E0.05306
G1 X128.340 Y129.026 E0.05313
G1 X129.726 Y129.998 E0.05308
G1 X131.394 Y130.765 E0.05756
G1 X133.032 Y131.194 E0.05308
G1 X134.408 Y131.313 E0.04331
G1 X124.959 Y156.946 E0.85659
G1 X111.504 Y133.432 E0.84943
G1 X110.183 Y130.639 E0.09687
G1 X110.112 Y130.445 E0.00646
G1 X109.315 Y127.685 E0.09008
G1 X109.266 Y127.485 E0.00647
G1 X108.892 Y124.430 E0.09648
G1 X109.017 Y121.144 E0.10312
G1 X109.580 Y118.334 E0.08985
G1 X109.692 Y117.920 E0.01345
G1 X110.691 Y115.234 E0.08987
G1 X110.778 Y115.046 E0.00647
G1 X112.317 Y112.337 E0.09770
G1 X112.066 Y112.052 E0.01191
G1 X109.488 Y113.274 E0.08945
G1 X109.299 Y113.382 E0.00683
G1 X106.949 Y114.991 E0.08929
G1 X104.869 Y116.934 E0.08926
G1 X102.984 Y119.337 E0.09575
G1 X101.592 Y121.826 E0.08941
M73 Q2 S53
G1 X100.595 Y124.488 E0.08911
G1 X100.533 Y124.697 E0.00685
G1 X99.966 Y127.484 E0.08918
G1 X99.827 Y130.323 E0.08911
G1 X99.835 Y130.541 E0.00685
G1 X100.040 Y132.400 E0.05864
M73 P2 R52
G1 X98.933 Y130.597 E0.06635
G1 X98.836 Y130.409 E0.00664
G1 X97.637 Y127.592 E0.09597
G1 X96.844 Y124.641 E0.09582
G1 X96.458 Y121.390 E0.10265
G1 X96.528 Y118.550 E0.08907
G1 X96.569 Y118.113 E0.01376
G1 X97.044 Y115.313 E0.08906
G1 X97.096 Y115.107 E0.00665
G1 X98.040 Y112.197 E0.09592
G1 X99.382 Y109.448 E0.09591
G1 X101.096 Y106.912 E0.09599
G1 X101.226 Y106.745 E0.00664
G1 X103.297 Y104.488 E0.09603
G1 X105.840 Y102.397 E0.10322
G1 X105.737 Y102.117 E0.00935
G1 X102.312 Y102.174 E0.10740
G1 X99.172 Y102.711 E0.09986
G1 X98.945 Y102.768 E0.00737
G1 X95.931 Y103.801 E0.09987
G1 X93.108 Y105.283 E0.09999
G1 X92.910 Y105.408 E0.00735
G1 X90.358 Y107.323 E0.10002
G1 X88.131 Y109.600 E0.09987
G1 X87.981 Y109.781 E0.00737
G1 X86.148 Y112.385 E0.09984
G1 X84.730 Y115.240 E0.09994
G1 X84.644 Y115.458 E0.00736
G1 X84.104 Y117.205 E0.05731
G1 X84.060 Y114.315 E0.09062
G1 X84.071 Y114.028 E0.00900
G1 X84.465 Y110.108 E0.12351
G1 X84.556 Y109.530 E0.01836
G1 X85.395 Y105.678 E0.12359
G1 X85.472 Y105.402 E0.00900
G1 X86.844 Y101.397 E0.13273
G1 X88.654 Y97.569 E0.13277
G1 X88.794 Y97.319 E0.00899
G1 X91.037 Y93.731 E0.13266
G1 X93.668 Y90.413 E0.13277
G1 X96.863 Y87.214 E0.14177
G1 X100.172 Y84.582 E0.13256
G1 X103.759 Y82.332 E0.13277
G1 X104.009 Y82.192 E0.00899
G1 X107.833 Y80.377 E0.13271
G1 X111.836 Y78.999 E0.13273
G1 X112.112 Y78.921 E0.00899
G1 X116.263 Y78.018 E0.13321
G1 X117.079 Y77.817 E0.02633
G1 X117.865 Y77.481 E0.02679
G1 X118.584 Y77.021 E0.02678
G1 X119.217 Y76.450 E0.02674
G1 X119.751 Y75.783 E0.02678
G1 X120.168 Y75.036 E0.02680
G1 X120.457 Y74.234 E0.02675
G1 X120.610 Y73.402 E0.02651
G1 X122.348 Y56.029 E0.54746
G1 X122.467 Y55.389 E0.02042
G1 X122.689 Y54.786 E0.02013
G1 X123.010 Y54.232 E0.02005
G1 X123.421 Y53.738 E0.02018
G1 X123.910 Y53.319 E0.02018
G1 X124.462 Y52.991 E0.02012
G1 X125.000 Y52.784 E0.01809
G1 X125.538 Y52.991 E0.01806
G1 X126.089 Y53.319 E0.02012
G1 X126.575 Y53.737 E0.02009
G1 X127.021 Y54.289 E0.02227
G1 X127.309 Y54.787 E0.01802
G1 X127.533 Y55.389 E0.02014
G1 X127.652 Y56.029 E0.02040
G1 X129.388 Y73.402 E0.54745
G1 X129.541 Y74.234 E0.02651
G1 X129.830 Y75.036 E0.02675
G1 X130.247 Y75.783 E0.02680
G1 X130.781 Y76.450 E0.02678
G1 X131.414 Y77.021 E0.02675
G1 X132.135 Y77.481 E0.02683
G1 X132.919 Y77.817 E0.02673
G1 X133.735 Y78.018 E0.02633
G1 X137.884 Y78.921 E0.13315
G1 X138.160 Y78.999 E0.00898
G1 X142.165 Y80.377 E0.13279
G1 X145.989 Y82.192 E0.13271
G1 X146.239 Y82.332 E0.00899
G1 X149.826 Y84.582 E0.13277
G1 X153.135 Y87.214 E0.13256
G1 X156.330 Y90.413 E0.14178
G1 X158.780 Y93.500 E0.12355
G1 X159.124 Y93.974 E0.01836
G1 X161.204 Y97.319 E0.12350
G1 X161.344 Y97.569 E0.00899
G1 X163.154 Y101.397 E0.13277
G1 X164.526 Y105.402 E0.13273
G1 X164.604 Y105.678 E0.00900
G1 X165.499 Y109.816 E0.13272
G1 X165.928 Y114.028 E0.13277
G1 X165.940 Y114.315 E0.00899
G1 X165.895 Y117.209 E0.09075
G1 X165.352 Y115.458 E0.05746
G1 X165.266 Y115.240 E0.00736
G1 X163.852 Y112.385 E0.09988
G1 X162.017 Y109.781 E0.09988
G1 X161.867 Y109.600 E0.00736
G1 X159.800 Y107.480 E0.09286
G1 X159.461 Y107.181 E0.01417
G1 X157.089 Y105.408 E0.09285
G1 X156.890 Y105.283 E0.00735
G1 X154.067 Y103.801 E0.09998
G1 X151.055 Y102.768 E0.09983
G1 X150.827 Y102.711 E0.00737
G1 X147.686 Y102.174 E0.09990
G1 X144.429 Y102.120 E0.10215
G1 X144.014 Y102.020 F10800.000
G1 F8640
G1 X144.238 Y102.464 E-0.09075
G1 X146.477 Y104.305 E-0.66925
G1 E-0.04000 F2100.00000
G1 Z0.800 F10800.000
G1 X149.307 Y108.400
G1 Z0.200
G1 E0.80000 F2100.00000
G1 F1200
G1 X118.662 Y77.754 E1.36174
G1 X118.987 Y77.545 E0.01215
G1 X143.635 Y102.193 E1.09524
G1 X143.782 Y101.806 E0.01302
G1 X119.268 Y77.292 E1.08927
G1 X119.549 Y77.039 E0.01189
G1 X143.963 Y101.452 E1.08482
G1 X144.506 Y101.461 E0.01708
G1 X119.810 Y76.765 E1.09739
G1 X120.047 Y76.468 E0.01195
G1 X145.050 Y101.471 E1.11098
G1 X145.593 Y101.480 E0.01708
G1 X120.285 Y76.171 E1.12458
G1 X120.479 Y75.831 E0.01230
G1 X146.137 Y101.489 E1.14009
G1 X146.680 Y101.498 E0.01708
G1 X120.671 Y75.488 E1.15572
G1 X120.770 Y75.311 E0.00638
G1 X120.839 Y75.122 E0.00634
G1 X147.224 Y101.507 E1.17243
G1 X147.771 Y101.519 E0.01719
G1 X120.980 Y74.729 E1.19044
G1 X121.111 Y74.326 E0.01332
G1 X148.415 Y101.629 E1.21325
G1 X149.060 Y101.739 E0.02054
G1 X121.194 Y73.874 E1.23819
G1 X121.272 Y73.417 E0.01456
G1 X149.704 Y101.849 E1.26339
G1 X150.348 Y101.959 E0.02054
G1 X121.320 Y72.931 E1.28986
G1 X121.369 Y72.446 E0.01534
G1 X150.996 Y102.073 E1.31648
G1 X151.243 Y102.135 E0.00801
G1 X151.775 Y102.318 E0.01767
G1 X121.418 Y71.960 E1.34895
G1 X121.466 Y71.474 E0.01534
G1 X152.588 Y102.596 E1.38292
G1 X153.402 Y102.875 E0.02701
G1 X121.515 Y70.988 E1.41689
G1 X121.563 Y70.502 E0.01534
G1 X154.576 Y103.515 E1.46691
G1 F8640
G1 X152.248 Y101.188 E-0.76000
G1 E-0.04000 F2100.00000
G1 Z0.800 F10800.000
G1 X155.700 Y104.105
G1 Z0.200
G1 E0.80000 F2100.00000
G1 F1200
G1 X121.612 Y70.017 E1.51471
G1 X121.661 Y69.531 E0.01534
G1 X156.824 Y104.695 E1.56251
G1 F8640
G1 X154.497 Y102.367 E-0.76000
G1 E-0.04000 F2100.00000
G1 Z0.800 F10800.000
G1 X158.559 Y105.895
G1 Z0.200
G1 E0.80000 F2100.00000
G1 F1200
G1 X121.709 Y69.045 E1.63743
M73 Q3 S52
M73 P4 R51
G1 X121.758 Y68.559 E0.01534
G1 X165.232 Y112.034 E1.93180
G1 X165.293 Y112.629 F10800.000
G1 F1200
G1 X163.024 Y110.360 E0.10083
G1 F8640
G1 X165.293 Y112.629 E-0.74095
