; generated by PrusaSlicer 2.3.0+win64 on 2022-04-02 at 18:45:35 UTC

; 

; external perimeters extrusion width = 0.45mm
; perimeters extrusion width = 0.45mm
; infill extrusion width = 0.45mm
; solid infill extrusion width = 0.45mm
; top infill extrusion width = 0.40mm
; first layer extrusion width = 0.42mm

; external perimeters extrusion width = 0.45mm
; perimeters extrusion width = 0.45mm
; infill extrusion width = 0.45mm
; solid infill extrusion width = 0.45mm
; top infill extrusion width = 0.40mm
; first layer extrusion width = 0.42mm

M73 P0 R225
M73 Q0 S227
M201 X1000 Y1000 Z200 E8000 ; sets maximum accelerations, mm/sec^2
M203 X200 Y200 Z12 E120 ; sets maximum feedrates, mm/sec
M204 P1250 R1250 T1250 ; sets acceleration (P, T) and retract acceleration (R), mm/sec^2
M205 X8.00 Y8.00 Z0.40 E4.50 ; sets the jerk limits, mm/sec
M205 S0 T0 ; sets the minimum extruding and travel feed rate, mm/sec
M107
;TYPE:Custom
M862.3 P "MK3SMMU2S" ; printer model check
M862.1 P0.4 ; nozzle diameter check
M115 U3.9.2 ; tell printer latest fw version
G90 ; use absolute coordinates
M83 ; extruder relative mode
M104 S215 ; set extruder temp
M140 S60 ; set bed temp
M190 S60 ; wait for bed temp
M109 S215 ; wait for extruder temp
G28 W ; home all without mesh bed level
G80 ; mesh bed leveling

; Send the filament type to the MMU2.0 unit.
; E stands for extruder number, F stands for filament type (0: default; 1:flex; 2: PVA)
M403 E0 F0
M403 E1 F0
M403 E2 F0
M403 E3 F0
M403 E4 F0


;go outside print area
G1 Y-3.0 F1000.0
G1 Z0.4 F1000.0
; select extruder
T0
; initial load
G1 X55.0 E29.0 F1073.0
G1 X5.0 E29.0 F1800.0
G1 X55.0 E8.0 F2000.0
G1 Z0.3 F1000.0
G92 E0.0
G1 X240.0 E25.0 F2200.0
M73 P0 R224
G1 Y-2.0 F1000.0
G1 X55.0 E25 F1400.0
G1 Z0.20 F1000.0
G1 X5.0 E4.0 F1000.0
G92 E0.0


M221 S95
G92 E0.0

; Don't change E values below. Excessive value can damage the printer.
M907 E430 ; set extruder motor current
G21 ; set units to millimeters
G90 ; use absolute coordinates
M83 ; use relative distances for extrusion
M900 K0.05 ; Filament gcode LA 1.5
M900 K30 ; Filament gcode LA 1.0
;LAYER_CHANGE
;Z:0.2
;HEIGHT:0.2
;BEFORE_LAYER_CHANGE
G92 E0.0
;0.2


G1 E-0.80000 F2100.000
G1 Z0.400 F10800.000
;AFTER_LAYER_CHANGE
;0.2
G1 X30.281 Y22.603
G1 Z0.200
G1 E0.80000 F2100.000
M204 S1000
;TYPE:Skirt
;WIDTH:0.42
G1 F1200.000
G1 X30.961 Y22.045 E0.02756
G1 X31.580 Y21.756 E0.02145
G1 X32.514 Y21.563 E0.02987
G1 X103.449 Y21.563 E2.22415
G1 X189.236 Y24.983 E2.69190
G1 X190.098 Y25.153 E0.02755
G1 X190.784 Y25.490 E0.02396
G1 X191.426 Y26.027 E0.02625
G1 X191.792 Y26.498 E0.01870
G1 X192.141 Y27.225 E0.02531
G1 X192.301 Y28.158 E0.02967
G1 X192.300 Y90.658 E1.95965
G1 X188.771 Y160.749 E2.20044
G1 X188.649 Y161.426 E0.02157
G1 X188.315 Y162.202 E0.02648
G1 X187.820 Y162.836 E0.02523
G1 X187.167 Y163.333 E0.02571
G1 X186.349 Y163.665 E0.02768
G1 X185.558 Y163.770 E0.02503
G1 X118.122 Y163.769 E2.11440
G1 X32.404 Y160.350 E2.68977
M73 Q0 S226
G1 X31.570 Y160.207 E0.02651
G1 X30.821 Y159.861 E0.02587
G1 X30.297 Y159.453 E0.02082
G1 X29.766 Y158.789 E0.02667
G1 X29.416 Y158.000 E0.02706
G1 X29.297 Y157.132 E0.02748
G1 X29.291 Y101.875 E1.73254
G1 X29.408 Y24.815 E2.41618
G1 X29.490 Y24.104 E0.02243
G1 X29.779 Y23.314 E0.02639
G1 X30.247 Y22.652 E0.02539
; printing object 2.stl id:1 copy 0
;WIPE_START
G1 F8640.000
G1 X30.961 Y22.045 E-0.21634
G1 X31.580 Y21.756 E-0.15796
G1 X32.514 Y21.563 E-0.22001
G1 X33.231 Y21.563 E-0.16569
;WIPE_END
G1 E-0.04000 F2100.000
G1 Z0.600 F10800.000
G1 X33.017 Y25.172
G1 Z0.200
G1 E0.80000 F2100.000
;TYPE:Perimeter
G1 F1200.000
G1 X103.039 Y25.171 E2.19550
G1 X103.039 Y50.275 E0.78711
G1 X100.588 Y50.277 E0.07685
G1 X100.638 Y51.787 E0.04738
G1 X100.742 Y52.556 E0.02431
G1 X100.647 Y53.396 E0.02651
G1 X100.647 Y53.800 E0.01269
G1 X100.739 Y54.612 E0.02563
G1 X100.647 Y55.424 E0.02563
G1 X100.647 Y55.829 E0.01269
G1 X100.739 Y56.641 E0.02563
G1 X100.647 Y57.453 E0.02563
G1 X100.647 Y57.858 E0.01269
G1 X100.742 Y58.698 E0.02651
G1 X100.638 Y59.466 E0.02431
G1 X100.588 Y60.977 E0.04738
G1 X103.040 Y60.978 E0.07689
G1 X103.039 Y86.752 E0.80810
G1 X33.017 Y86.752 E2.19550
G1 X33.017 Y60.978 E0.80810
G1 X36.260 Y60.977 E0.10169
G1 X36.210 Y59.466 E0.04738
G1 X36.106 Y58.698 E0.02431
G1 X36.201 Y57.858 E0.02651
G1 X36.201 Y57.453 E0.01269
G1 X36.109 Y56.641 E0.02563
G1 X36.201 Y55.829 E0.02563
G1 X36.201 Y55.424 E0.01269
G1 X36.109 Y54.612 E0.02563
G1 X36.201 Y53.800 E0.02563
G1 X36.201 Y53.396 E0.01269
G1 X36.106 Y52.556 E0.02651
G1 X36.210 Y51.787 E0.02431
G1 X36.260 Y50.277 E0.04738
G1 X33.017 Y50.275 E0.10169
G1 X33.017 Y25.232 E0.78522
;WIPE_START
G1 F8640.000
G1 X36.308 Y25.229 E-0.76000
;WIPE_END
G1 E-0.04000 F2100.000
G1 Z0.600 F10800.000
G1 X100.978 Y50.654
G1 Z0.200
G1 E0.80000 F2100.000
;TYPE:External perimeter
G1 F1200.000
G1 X101.015 Y51.756 E0.03457
G1 X101.101 Y52.395 E0.02022
G1 X103.327 Y52.395 E0.06978
G1 X103.438 Y52.409 E0.00352
G1 X103.438 Y52.758 E0.01096
G1 X103.327 Y52.772 E0.00352
G1 X101.097 Y52.772 E0.06991
G1 X101.024 Y53.417 E0.02035
G1 X101.024 Y53.779 E0.01135
G1 X101.097 Y54.424 E0.02035
G1 X103.327 Y54.424 E0.06991
G1 X103.438 Y54.438 E0.00352
G1 X103.438 Y54.787 E0.01096
G1 X103.327 Y54.801 E0.00352
G1 X101.097 Y54.801 E0.06991
G1 X101.024 Y55.446 E0.02035
G1 X101.024 Y55.808 E0.01135
G1 X101.097 Y56.453 E0.02035
G1 X103.327 Y56.453 E0.06991
G1 X103.438 Y56.466 E0.00352
G1 X103.438 Y56.816 E0.01096
G1 X103.327 Y56.830 E0.00352
G1 X101.097 Y56.830 E0.06991
G1 X101.024 Y57.475 E0.02035
G1 X101.024 Y57.837 E0.01135
G1 X101.097 Y58.482 E0.02035
G1 X103.327 Y58.482 E0.06991
G1 X103.438 Y58.495 E0.00352
G1 X103.438 Y58.845 E0.01096
G1 X103.327 Y58.859 E0.00352
G1 X101.101 Y58.859 E0.06978
G1 X101.015 Y59.498 E0.02022
G1 X100.978 Y60.600 E0.03457
G1 X103.417 Y60.602 E0.07649
G1 X103.416 Y87.032 E0.82872
M73 P0 R223
G1 X103.382 Y87.107 E0.00258
G1 X103.320 Y87.128 E0.00205
G1 X99.345 Y87.132 E0.12465
G1 X36.711 Y87.132 E1.96382
G1 X32.736 Y87.128 E0.12464
G1 X32.672 Y87.102 E0.00217
G1 X32.640 Y87.055 E0.00181
G1 X32.640 Y60.602 E0.82942
G1 X35.870 Y60.600 E0.10129
G1 X35.833 Y59.498 E0.03457
G1 X35.747 Y58.859 E0.02022
G1 X32.618 Y58.847 E0.09811
G1 X32.618 Y58.493 E0.01111
G1 X32.704 Y58.482 E0.00273
G1 X35.751 Y58.482 E0.09553
G1 X35.824 Y57.837 E0.02035
G1 X35.824 Y57.475 E0.01135
G1 X35.751 Y56.830 E0.02035
G1 X32.618 Y56.818 E0.09824
G1 X32.618 Y56.464 E0.01111
G1 X32.704 Y56.453 E0.00273
G1 X35.751 Y56.453 E0.09553
G1 X35.824 Y55.808 E0.02035
G1 X35.824 Y55.446 E0.01135
G1 X35.751 Y54.801 E0.02035
G1 X32.618 Y54.790 E0.09824
G1 X32.618 Y54.435 E0.01111
G1 X32.704 Y54.424 E0.00273
G1 X35.751 Y54.424 E0.09553
G1 X35.824 Y53.779 E0.02035
G1 X35.824 Y53.417 E0.01135
G1 X35.751 Y52.772 E0.02035
G1 X32.704 Y52.772 E0.09553
G1 X32.618 Y52.761 E0.00273
G1 X32.618 Y52.406 E0.01111
G1 X35.747 Y52.395 E0.09811
G1 X35.833 Y51.756 E0.02022
G1 X35.870 Y50.654 E0.03457
G1 X32.640 Y50.652 E0.10129
G1 X32.640 Y24.868 E0.80843
G1 X32.672 Y24.821 E0.00180
G1 X32.736 Y24.795 E0.00216
G1 X99.793 Y24.792 E2.10252
G1 X103.320 Y24.794 E0.11059
G1 X103.382 Y24.816 E0.00205
G1 X103.416 Y24.891 E0.00258
G1 X103.416 Y50.652 E0.80773
G1 X101.038 Y50.654 E0.07457
G1 X100.630 Y50.851 F10800.000
;WIPE_START
G1 F8640.000
G1 X101.015 Y51.756 E-0.25449
G1 X101.101 Y52.395 E-0.14894
G1 X102.645 Y52.395 E-0.35657
;WIPE_END
G1 E-0.04000 F2100.000
G1 Z0.600 F10800.000
G1 X102.926 Y26.047
G1 Z0.200
G1 E0.80000 F2100.000
;TYPE:Solid infill
;WIDTH:0.420116
G1 F1200.000
G1 X102.333 Y25.454 E0.02630
G1 X101.800 Y25.454 E0.01673
G1 X102.756 Y26.411 E0.04243
G1 X102.756 Y26.944 E0.01673
G1 X101.266 Y25.454 E0.06609
G1 X100.733 Y25.454 E0.01673
G1 X102.756 Y27.478 E0.08975
G1 X102.756 Y28.011 E0.01673
G1 X100.199 Y25.454 E0.11341
G1 X99.666 Y25.454 E0.01673
G1 X102.756 Y28.544 E0.13707
G1 X102.756 Y29.078 E0.01673
G1 X99.133 Y25.454 E0.16073
G1 X98.599 Y25.454 E0.01673
G1 X102.756 Y29.611 E0.18439
G1 X102.756 Y30.145 E0.01673
G1 X98.066 Y25.454 E0.20806
G1 X97.532 Y25.454 E0.01673
G1 X102.756 Y30.678 E0.23172
G1 X102.756 Y31.212 E0.01673
G1 X96.999 Y25.454 E0.25538
G1 X96.465 Y25.454 E0.01673
G1 X102.756 Y31.745 E0.27904
G1 X102.756 Y32.279 E0.01673
G1 X95.932 Y25.454 E0.30270
G1 X95.399 Y25.454 E0.01673
G1 X102.756 Y32.812 E0.32636
G1 X102.756 Y33.345 E0.01673
G1 X94.865 Y25.454 E0.35002
G1 X94.332 Y25.454 E0.01673
G1 X102.756 Y33.879 E0.37368
G1 X102.756 Y34.412 E0.01673
G1 X93.798 Y25.454 E0.39734
G1 X93.265 Y25.454 E0.01673
G1 X102.756 Y34.946 E0.42100
G1 X102.756 Y35.479 E0.01673
G1 X92.731 Y25.454 E0.44466
G1 X92.198 Y25.454 E0.01673
G1 X102.756 Y36.013 E0.46832
G1 X102.756 Y36.546 E0.01673
G1 X91.665 Y25.454 E0.49198
G1 X91.131 Y25.454 E0.01673
G1 X102.756 Y37.080 E0.51565
G1 X102.756 Y37.613 E0.01673
G1 X90.598 Y25.454 E0.53931
G1 X90.064 Y25.454 E0.01673
G1 X102.756 Y38.146 E0.56297
G1 X102.756 Y38.680 E0.01673
G1 X89.531 Y25.454 E0.58663
G1 X88.997 Y25.454 E0.01673
G1 X102.756 Y39.213 E0.61029
G1 X102.756 Y39.747 E0.01673
G1 X88.464 Y25.454 E0.63395
G1 X87.930 Y25.454 E0.01673
G1 X102.756 Y40.280 E0.65761
G1 X102.756 Y40.814 E0.01673
G1 X87.397 Y25.454 E0.68127
G1 X86.864 Y25.454 E0.01673
G1 X102.756 Y41.347 E0.70493
M73 Q0 S225
G1 X102.756 Y41.880 E0.01673
G1 X86.330 Y25.454 E0.72859
G1 X85.797 Y25.454 E0.01673
G1 X102.756 Y42.414 E0.75225
G1 X102.756 Y42.947 E0.01673
G1 X85.263 Y25.454 E0.77591
G1 X84.730 Y25.454 E0.01673
G1 X102.756 Y43.481 E0.79957
G1 X102.756 Y44.014 E0.01673
G1 X84.196 Y25.454 E0.82324
G1 X83.663 Y25.454 E0.01673
G1 X102.756 Y44.548 E0.84690
G1 X102.756 Y45.081 E0.01673
G1 X83.130 Y25.454 E0.87056
G1 X82.596 Y25.454 E0.01673
G1 X102.756 Y45.615 E0.89422
G1 X102.756 Y46.148 E0.01673
G1 X82.063 Y25.454 E0.91788
G1 X81.529 Y25.454 E0.01673
G1 X102.756 Y46.681 E0.94154
G1 X102.756 Y47.215 E0.01673
G1 X80.996 Y25.454 E0.96520
G1 X80.462 Y25.454 E0.01673
G1 X102.756 Y47.748 E0.98886
G1 X102.756 Y48.282 E0.01673
G1 X79.929 Y25.454 E1.01252
G1 X79.396 Y25.454 E0.01673
G1 X102.756 Y48.815 E1.03618
G1 X102.756 Y49.349 E0.01673
G1 X78.862 Y25.454 E1.05984
G1 X78.329 Y25.454 E0.01673
G1 X102.756 Y49.882 E1.08350
G1 X102.756 Y49.993 E0.00347
G1 X102.334 Y49.993 E0.01325
G1 X77.795 Y25.454 E1.08842
G1 X77.262 Y25.454 E0.01673
G1 X101.801 Y49.993 E1.08844
M73 P0 R222
G1 X101.268 Y49.994 E0.01672
G1 X76.728 Y25.454 E1.08846
G1 X76.195 Y25.454 E0.01673
G1 X100.735 Y49.994 E1.08848
G1 X100.296 Y49.994 E0.01377
G1 X100.299 Y50.092 E0.00305
G1 X75.662 Y25.454 E1.09280
M73 P1 R222
M73 Q1 S225
G1 X75.128 Y25.454 E0.01673
G1 X100.317 Y50.644 E1.11728
G1 X100.336 Y51.195 E0.01732
G1 X74.595 Y25.454 E1.14176
G1 X74.061 Y25.454 E0.01673
G1 X100.354 Y51.747 E1.16623
G1 X100.430 Y52.356 E0.01926
G1 X73.528 Y25.454 E1.19325
G1 X72.994 Y25.454 E0.01673
G1 X100.421 Y52.880 E1.21650
G1 X100.366 Y53.359 E0.01512
G1 X72.461 Y25.454 E1.23775
G1 X71.927 Y25.454 E0.01673
G1 X100.373 Y53.900 E1.26173
G1 X100.442 Y54.502 E0.01900
G1 X71.394 Y25.454 E1.28842
G1 X70.861 Y25.454 E0.01673
G1 X100.410 Y55.004 E1.31067
G1 X100.364 Y55.491 E0.01535
G1 X70.327 Y25.454 E1.33229
G1 X69.794 Y25.454 E0.01673
G1 X100.387 Y56.047 E1.35697
G1 X100.454 Y56.648 E0.01894
G1 X69.260 Y25.454 E1.38359
G1 X68.727 Y25.454 E0.01673
G1 X100.399 Y57.127 E1.40484
G1 X100.364 Y57.437 E0.00981
G1 X100.364 Y57.625 E0.00588
G1 X68.193 Y25.454 E1.42693
M73 Q1 S224
G1 X67.660 Y25.454 E0.01673
G1 X100.400 Y58.195 E1.45221
G1 X100.457 Y58.695 E0.01580
G1 X100.447 Y58.774 E0.00251
G1 X67.127 Y25.454 E1.47792
G1 X66.593 Y25.454 E0.01673
G1 X100.383 Y59.244 E1.49876
G1 X100.346 Y59.741 E0.01562
G1 X66.060 Y25.454 E1.52079
G1 X65.526 Y25.454 E0.01673
G1 X100.493 Y60.421 E1.55098
;WIPE_START
G1 F8640.000
G1 X98.166 Y58.094 E-0.76000
;WIPE_END
G1 E-0.04000 F2100.000
G1 Z0.600 F10800.000
G1 X102.230 Y61.091
G1 Z0.200
G1 E0.80000 F2100.000
G1 F1200.000
G1 X102.758 Y61.619 E0.02341
G1 X102.758 Y62.152 E0.01673
G1 X101.866 Y61.260 E0.03956
G1 X101.332 Y61.260 E0.01674
G1 X102.757 Y62.685 E0.06323
G1 X102.757 Y63.219 E0.01673
G1 X100.798 Y61.259 E0.08691
G1 X100.296 Y61.259 E0.01575
G1 X100.312 Y60.773 E0.01524
G1 X64.993 Y25.454 E1.56659
G1 X64.459 Y25.454 E0.01673
G1 X102.757 Y63.752 E1.69872
G1 X102.757 Y64.286 E0.01673
G1 X63.926 Y25.454 E1.72238
G1 X63.393 Y25.454 E0.01673
G1 X102.757 Y64.819 E1.74604
G1 X102.757 Y65.353 E0.01673
G1 X62.859 Y25.454 E1.76970
M73 P1 R221
G1 X62.326 Y25.454 E0.01673
G1 X102.757 Y65.886 E1.79336
G1 X102.757 Y66.419 E0.01673
G1 X61.792 Y25.454 E1.81702
G1 X61.259 Y25.454 E0.01673
G1 X102.757 Y66.953 E1.84068
G1 X102.757 Y67.486 E0.01673
G1 X60.725 Y25.454 E1.86434
G1 X60.192 Y25.454 E0.01673
G1 X102.757 Y68.020 E1.88800
G1 X102.757 Y68.553 E0.01673
G1 X59.659 Y25.454 E1.91166
G1 X59.125 Y25.454 E0.01673
G1 X102.757 Y69.086 E1.93532
G1 X102.757 Y69.620 E0.01673
G1 X58.592 Y25.454 E1.95898
G1 X58.058 Y25.454 E0.01673
G1 X102.757 Y70.153 E1.98264
G1 X102.757 Y70.687 E0.01673
G1 X57.525 Y25.454 E2.00630
G1 X56.991 Y25.454 E0.01673
G1 X102.757 Y71.220 E2.02996
M73 Q1 S223
G1 X102.757 Y71.753 E0.01673
G1 X56.458 Y25.454 E2.05362
G1 X55.924 Y25.454 E0.01673
G1 X102.757 Y72.287 E2.07728
G1 X102.757 Y72.820 E0.01673
G1 X55.391 Y25.454 E2.10094
G1 X54.858 Y25.454 E0.01673
G1 X102.757 Y73.354 E2.12459
G1 X102.757 Y73.887 E0.01673
G1 X54.324 Y25.454 E2.14825
G1 X53.791 Y25.454 E0.01673
G1 X102.757 Y74.421 E2.17191
G1 X102.757 Y74.954 E0.01673
G1 X53.257 Y25.454 E2.19557
G1 X52.724 Y25.454 E0.01673
G1 X102.757 Y75.487 E2.21923
M73 P1 R220
G1 X102.757 Y76.021 E0.01673
G1 X52.190 Y25.454 E2.24289
G1 X51.657 Y25.454 E0.01673
G1 X102.757 Y76.554 E2.26655
G1 X102.757 Y77.088 E0.01673
G1 X51.124 Y25.454 E2.29021
G1 X50.590 Y25.454 E0.01673
G1 X102.757 Y77.621 E2.31387
G1 X102.757 Y78.154 E0.01673
G1 X50.057 Y25.454 E2.33753
M73 P2 R220
G1 X49.523 Y25.454 E0.01673
G1 X102.757 Y78.688 E2.36119
M73 Q2 S223
G1 X102.757 Y79.221 E0.01673
G1 X48.990 Y25.454 E2.38485
G1 X48.456 Y25.454 E0.01673
G1 X102.757 Y79.755 E2.40851
M73 Q2 S222
G1 X102.757 Y80.288 E0.01673
G1 X47.923 Y25.454 E2.43217
G1 X47.390 Y25.454 E0.01673
G1 X102.757 Y80.821 E2.45583
G1 X102.757 Y81.355 E0.01673
G1 X46.856 Y25.454 E2.47949
G1 X46.323 Y25.454 E0.01673
G1 X102.757 Y81.888 E2.50315
G1 X102.757 Y82.422 E0.01673
G1 X45.789 Y25.454 E2.52681
G1 X45.256 Y25.454 E0.01673
G1 X102.757 Y82.955 E2.55047
G1 X102.757 Y83.489 E0.01673
G1 X44.722 Y25.454 E2.57413
M73 P2 R219
G1 X44.189 Y25.454 E0.01673
G1 X102.756 Y84.022 E2.59779
G1 X102.756 Y84.555 E0.01673
G1 X43.655 Y25.454 E2.62144
G1 X43.122 Y25.454 E0.01673
G1 X102.756 Y85.089 E2.64510
G1 X102.756 Y85.622 E0.01673
G1 X42.589 Y25.454 E2.66876
G1 X42.055 Y25.454 E0.01673
G1 X102.756 Y86.156 E2.69242
G1 X102.756 Y86.469 E0.00982
G1 X102.536 Y86.469 E0.00691
G1 X41.522 Y25.454 E2.70632
G1 X40.988 Y25.454 E0.01673
G1 X102.003 Y86.469 E2.70631
G1 X101.469 Y86.469 E0.01673
G1 X40.455 Y25.454 E2.70631
M73 Q2 S221
G1 X39.921 Y25.454 E0.01673
G1 X100.936 Y86.469 E2.70631
G1 X100.402 Y86.469 E0.01673
G1 X39.388 Y25.454 E2.70631
G1 X38.855 Y25.454 E0.01673
G1 X99.869 Y86.469 E2.70631
G1 X99.336 Y86.469 E0.01673
G1 X38.321 Y25.454 E2.70631
G1 X37.788 Y25.454 E0.01673
G1 X98.802 Y86.469 E2.70631
G1 X98.269 Y86.469 E0.01673
G1 X37.254 Y25.454 E2.70631
M73 P2 R218
G1 X36.721 Y25.454 E0.01673
G1 X97.735 Y86.469 E2.70631
G1 X97.202 Y86.469 E0.01673
G1 X36.187 Y25.454 E2.70631
G1 X35.654 Y25.454 E0.01673
G1 X96.668 Y86.469 E2.70631
G1 X96.135 Y86.469 E0.01673
G1 X35.121 Y25.454 E2.70631
G1 X34.587 Y25.454 E0.01673
G1 X95.601 Y86.469 E2.70631
G1 X95.068 Y86.469 E0.01673
G1 X34.054 Y25.454 E2.70631
G1 X33.520 Y25.454 E0.01673
G1 X94.535 Y86.469 E2.70631
G1 X94.001 Y86.469 E0.01673
G1 X33.300 Y25.767 E2.69243
M73 P3 R218
M73 Q2 S220
G1 X33.300 Y26.301 E0.01673
G1 X93.468 Y86.469 E2.66877
M73 Q3 S220
G1 X92.934 Y86.469 E0.01673
G1 X33.300 Y26.834 E2.64511
G1 X33.300 Y27.368 E0.01673
G1 X92.401 Y86.469 E2.62145
G1 X91.867 Y86.469 E0.01673
G1 X33.300 Y27.901 E2.59779
G1 X33.300 Y28.434 E0.01673
G1 X91.334 Y86.469 E2.57413
G1 X90.801 Y86.469 E0.01673
