; generated by PrusaSlicer 2.3.0+win64 on 2021-12-10 at 23:43:19 UTC

; 

; external perimeters extrusion width = 0.45mm
; perimeters extrusion width = 0.45mm
; infill extrusion width = 0.45mm
; solid infill extrusion width = 0.45mm
; top infill extrusion width = 0.40mm
; first layer extrusion width = 0.42mm

; external perimeters extrusion width = 0.45mm
; perimeters extrusion width = 0.45mm
; infill extrusion width = 0.45mm
; solid infill extrusion width = 0.45mm
; top infill extrusion width = 0.40mm
; first layer extrusion width = 0.42mm

M73 P0 R45
M73 Q0 S45
M201 X1000 Y1000 Z200 E8000 ; sets maximum accelerations, mm/sec^2
M203 X200 Y200 Z12 E120 ; sets maximum feedrates, mm/sec
M204 P1250 R1250 T1250 ; sets acceleration (P, T) and retract acceleration (R), mm/sec^2
M205 X8.00 Y8.00 Z0.40 E4.50 ; sets the jerk limits, mm/sec
M205 S0 T0 ; sets the minimum extruding and travel feed rate, mm/sec
M107
;TYPE:Custom
M862.3 P "MK3SMMU2S" ; printer model check
M862.1 P0.4 ; nozzle diameter check
M115 U3.9.2 ; tell printer latest fw version
G90 ; use absolute coordinates
M83 ; extruder relative mode
M104 S215 ; set extruder temp
M140 S60 ; set bed temp
M190 S60 ; wait for bed temp
M109 S215 ; wait for extruder temp
G28 W ; home all without mesh bed level
G80 ; mesh bed leveling

; Send the filament type to the MMU2.0 unit.
; E stands for extruder number, F stands for filament type (0: default; 1:flex; 2: PVA)
M403 E0 F0
M403 E1 F0
M403 E2 F0
M403 E3 F0
M403 E4 F0


;go outside print area
G1 Y-3.0 F1000.0
G1 Z0.4 F1000.0
; select extruder
T0
; initial load
G1 X55.0 E29.0 F1073.0
G1 X5.0 E29.0 F1800.0
M73 P0 R44
G1 X55.0 E8.0 F2000.0
G1 Z0.3 F1000.0
G92 E0.0
G1 X240.0 E25.0 F2200.0
G1 Y-2.0 F1000.0
G1 X55.0 E25 F1400.0
M73 Q0 S44
G1 Z0.20 F1000.0
G1 X5.0 E4.0 F1000.0
G92 E0.0


M221 S95
G92 E0.0

; Don't change E values below. Excessive value can damage the printer.
M907 E430 ; set extruder motor current
G21 ; set units to millimeters
G90 ; use absolute coordinates
M83 ; use relative distances for extrusion
T0
M900 K0.05 ; Filament gcode LA 1.5
M900 K30 ; Filament gcode LA 1.0
G1 Z0.200 F10800.000
;LAYER_CHANGE
;Z:0.2
;HEIGHT:0.2
;BEFORE_LAYER_CHANGE
G92 E0.0
;0.2


G1 E-0.80000 F2100.000
G1 Z0.600 F10800.000
G1 Z0.200
;AFTER_LAYER_CHANGE
;0.2
G1 E-2.20000 F2100.000
G1 Z0.600 F10800.000
G1 X207.870 Y122.644
G1 Z0.200
G1 E3.00000 F2100.000
;HEIGHT:0.200000
;TYPE:Wipe tower
;WIDTH:0.500000
;-------------------------------------
; CP WIPE TOWER FIRST LAYER BRIM START
G1  X207.870 Y149.764  E1.5461 F2400
G1  X205.327 Y150.221   F7000
G1  Y122.187  E1.1720 F2100
M73 Q1 S44
G1  X144.413  E2.5466
M73 P1 R44
G1  Y150.221  E1.1720
G1  X205.327  E2.5466
G1  X205.784 Y150.678   F7000
G1  Y121.730  E1.2102 F2100
G1  X143.956  E2.5849
G1  Y150.678  E1.2102
G1  X205.784  E2.5849
G1  X206.241 Y151.135   F7000
G1  Y121.273  E1.2485 F2100
G1  X143.499  E2.6231
G1  Y151.135  E1.2485
G1  X206.241  E2.6231
G1  X206.698 Y151.592   F7000
G1  Y120.816  E1.2867 F2100
G1  X143.042  E2.6613
G1  Y151.592  E1.2867
G1  X206.698  E2.6613
; CP WIPE TOWER FIRST LAYER BRIM END
;-----------------------------------
G1  X145.370 Y123.144   F7200
;HEIGHT:0.200000
;TYPE:Wipe tower
;WIDTH:0.500000
;--------------------
; CP EMPTY GRID START
; layer #1
G1  X144.870 
G1  Y122.644 
G1  X204.870  E2.2804 F1450
G1  Y149.764  E1.0307
G1  X144.870  E2.2804
M73 P2 R44
M73 Q2 S44
G1  Y122.644  E1.0307
G1  X145.370 
G1  Y123.144 
G1  X204.370  E2.2424
G1  Y149.264  E0.9927
G1  X145.370  E2.2424
G1  Y123.144  E0.9927
G1  X204.370 
M73 P2 R43
G1  Y149.264 
G1  X203.870 Y148.752   E0.0272
G1  X145.870  E2.2044
G1  Y148.239  E0.0195
G1  X203.870  E2.2044
G1  Y147.727  E0.0195
G1  X145.870  E2.2044
G1  Y147.214  E0.0195
G1  X203.870  E2.2044
G1  Y146.702  E0.0195
G1  X145.870  E2.2044
M73 Q2 S43
G1  Y146.190  E0.0195
G1  X203.870  E2.2044
M73 P3 R43
M73 Q3 S43
G1  Y145.677  E0.0195
G1  X145.870  E2.2044
G1  Y145.165  E0.0195
G1  X203.870  E2.2044
G1  Y144.652  E0.0195
G1  X145.870  E2.2044
G1  Y144.140  E0.0195
G1  X203.870  E2.2044
G1  Y143.628  E0.0195
G1  X145.870  E2.2044
G1  Y143.115  E0.0195
G1  X203.870  E2.2044
G1  Y142.603  E0.0195
G1  X145.870  E2.2044
G1  Y142.090  E0.0195
G1  X203.870  E2.2044
G1  Y141.578  E0.0195
G1  X145.870  E2.2044
G1  Y141.066  E0.0195
G1  X203.870  E2.2044
G1  Y140.553  E0.0195
G1  X145.870  E2.2044
M73 P4 R43
M73 Q4 S43
G1  Y140.041  E0.0195
G1  X203.870  E2.2044
G1  Y139.528  E0.0195
G1  X145.870  E2.2044
G1  Y139.016  E0.0195
G1  X203.870  E2.2044
G1  Y138.504  E0.0195
G1  X145.870  E2.2044
G1  Y137.991  E0.0195
G1  X203.870  E2.2044
G1  Y137.479  E0.0195
G1  X145.870  E2.2044
G1  Y136.966  E0.0195
G1  X203.870  E2.2044
M73 P4 R42
G1  Y136.454  E0.0195
G1  X145.870  E2.2044
G1  Y135.942  E0.0195
G1  X203.870  E2.2044
G1  Y135.429  E0.0195
G1  X145.870  E2.2044
G1  Y134.917  E0.0195
G1  X203.870  E2.2044
M73 P5 R42
M73 Q5 S43
G1  Y134.404  E0.0195
G1  X145.870  E2.2044
M73 Q5 S42
G1  Y133.892  E0.0195
G1  X203.870  E2.2044
G1  Y133.380  E0.0195
G1  X145.870  E2.2044
G1  Y132.867  E0.0195
G1  X203.870  E2.2044
G1  Y132.355  E0.0195
G1  X145.870  E2.2044
G1  Y131.842  E0.0195
G1  X203.870  E2.2044
G1  Y131.330  E0.0195
G1  X145.870  E2.2044
G1  Y130.818  E0.0195
G1  X203.870  E2.2044
G1  Y130.305  E0.0195
G1  X145.870  E2.2044
G1  Y129.793  E0.0195
G1  X203.870  E2.2044
G1  Y129.280  E0.0195
G1  X145.870  E2.2044
M73 P6 R42
M73 Q6 S42
G1  Y128.768  E0.0195
G1  X203.870  E2.2044
G1  Y128.256  E0.0195
G1  X145.870  E2.2044
G1  Y127.743  E0.0195
G1  X203.870  E2.2044
G1  Y127.231  E0.0195
G1  X145.870  E2.2044
G1  Y126.718  E0.0195
G1  X203.870  E2.2044
G1  Y126.206  E0.0195
G1  X145.870  E2.2044
G1  Y125.694  E0.0195
G1  X203.870  E2.2044
G1  Y125.181  E0.0195
G1  X145.870  E2.2044
G1  Y124.669  E0.0195
G1  X203.870  E2.2044
G1  Y124.156  E0.0195
G1  X145.870  E2.2044
M73 P6 R41
G1  Y123.644  E0.0195
G1  X203.870  E2.2044
; CP EMPTY GRID END
;------------------







;WIPE_START
M73 P7 R41
M73 Q7 S42
G1 F8640.000
G1 X200.578 Y123.644 E-0.76000
;WIPE_END
G1 E-0.04000 F2100.000
G1 Z0.600 F10800.000
G1 X208.728 Y120.304
G1 Z0.200
G1 E0.80000 F2100.000
M204 S1000
;TYPE:Skirt
;WIDTH:0.42
;HEIGHT:0.2
G1 F1200.000
G1 X208.846 Y121.011 E0.02249
G1 X208.846 Y151.402 E0.95288
G1 X208.773 Y151.952 E0.01740
G1 X208.574 Y152.470 E0.01740
G1 X208.260 Y152.928 E0.01740
G1 X207.849 Y153.300 E0.01740
G1 X207.198 Y153.627 E0.02284
G1 X206.478 Y153.741 E0.02284
G1 X143.262 Y153.741 E1.98209
G1 X142.382 Y153.569 E0.02813
G1 X141.664 Y153.116 E0.02661
G1 X126.200 Y138.714 E0.66259
G1 X102.116 Y110.776 E1.15653
G1 X101.856 Y110.307 E0.01680
G1 X101.708 Y109.792 E0.01680
G1 X101.679 Y109.257 E0.01680
G1 X101.772 Y108.725 E0.01692
G1 X112.610 Y73.628 E1.15171
M73 Q7 S41
G1 X112.912 Y73.011 E0.02154
G1 X113.375 Y72.509 E0.02142
G1 X114.062 Y72.121 E0.02473
G1 X114.837 Y71.978 E0.02473
G1 X149.894 Y71.978 E1.09917
G1 X150.689 Y72.116 E0.02532
G1 X151.393 Y72.513 E0.02532
G1 X207.985 Y119.214 E2.30058
G1 X208.405 Y119.664 E0.01929
G1 X208.701 Y120.250 E0.02060
; printing object Terrific Migelo.stl id:0 copy 0
;WIPE_START
G1 F8640.000
G1 X208.846 Y121.011 E-0.17886
G1 X208.846 Y123.528 E-0.58114
;WIPE_END
G1 E-0.04000 F2100.000
G1 Z0.600 F10800.000
G1 X133.268 Y127.229
G1 Z0.200
G1 E0.80000 F2100.000
;TYPE:External perimeter
G1 F1200.000
G1 X134.467 Y127.592 E0.03926
G1 X135.409 Y128.095 E0.03349
G1 X136.235 Y128.774 E0.03351
G1 X136.912 Y129.600 E0.03350
G1 X137.415 Y130.543 E0.03351
G1 X137.725 Y131.565 E0.03349
G1 X137.830 Y132.629 E0.03351
G1 X137.725 Y133.693 E0.03354
G1 X137.415 Y134.716 E0.03349
G1 X136.912 Y135.658 E0.03348
G1 X136.235 Y136.484 E0.03350
G1 X135.409 Y137.163 E0.03351
G1 X134.467 Y137.666 E0.03349
G1 X133.445 Y137.976 E0.03349
G1 X132.382 Y138.081 E0.03348
G1 X131.319 Y137.976 E0.03351
G1 X130.297 Y137.666 E0.03346
G1 X129.354 Y137.163 E0.03352
G1 X128.529 Y136.484 E0.03351
G1 X127.851 Y135.658 E0.03350
G1 X127.348 Y134.716 E0.03348
G1 X127.038 Y133.693 E0.03349
G1 X126.933 Y132.629 E0.03354
G1 X127.038 Y131.565 E0.03351
G1 X127.348 Y130.543 E0.03349
G1 X127.851 Y129.600 E0.03351
G1 X128.529 Y128.774 E0.03350
G1 X129.354 Y128.095 E0.03351
G1 X130.298 Y127.592 E0.03352
G1 X131.494 Y127.229 E0.03921
G1 X131.908 Y128.437 E0.04006
G1 X132.036 Y128.873 E0.01423
G1 X132.124 Y129.328 E0.01453
G1 X132.166 Y129.763 E0.01372
G1 X132.381 Y130.404 E0.02121
G1 X132.535 Y129.969 E0.01449
G1 X132.695 Y129.008 E0.03053
G1 X132.828 Y128.525 E0.01572
G1 X133.249 Y127.286 E0.04104
G1 X133.387 Y126.847 F10800.000
;WIPE_START
G1 F8640.000
G1 X134.467 Y127.592 E-0.28992
G1 X135.409 Y128.095 E-0.24666
G1 X136.157 Y128.710 E-0.22342
;WIPE_END
G1 E-0.04000 F2100.000
G1 Z0.600 F10800.000
G1 X143.169 Y96.003
G1 Z0.200
G1 E0.80000 F2100.000
;TYPE:Perimeter
G1 F1200.000
G1 X157.944 Y108.142 E0.59957
G1 X158.697 Y108.717 E0.02971
G1 X157.740 Y108.718 E0.03001
G1 X139.032 Y109.399 E0.58696
G1 X133.029 Y126.762 E0.57603
G1 X132.468 Y128.414 E0.05471
G1 X132.384 Y128.718 E0.00989
G1 X132.267 Y128.323 E0.01292
G1 X131.733 Y126.762 E0.05172
G1 X125.731 Y109.399 E0.57602
G1 X107.006 Y108.717 E0.58750
G1 X106.066 Y108.717 E0.02948
G1 X106.853 Y108.114 E0.03110
G1 X121.595 Y96.003 E0.59820
G1 X116.408 Y76.993 E0.61783
M73 P8 R41
M73 Q8 S41
G1 X116.158 Y76.194 E0.02622
G1 X116.858 Y76.729 E0.02760
G1 X132.382 Y87.753 E0.59700
G1 X147.906 Y76.729 E0.59698
G1 X148.605 Y76.194 E0.02762
G1 X148.348 Y77.020 E0.02714
G1 X143.184 Y95.945 E0.61506
G1 X143.597 Y95.866 F10800.000
;TYPE:External perimeter
G1 F1200.000
G1 X158.182 Y107.849 E0.59185
G1 X158.569 Y108.160 E0.01556
G1 X158.980 Y108.456 E0.01589
G1 X159.834 Y108.948 E0.03092
G1 X160.149 Y109.207 E0.01278
G1 X159.739 Y109.222 E0.01288
G1 X158.757 Y109.096 E0.03102
G1 X158.249 Y109.082 E0.01594
G1 X157.752 Y109.095 E0.01561
G1 X139.304 Y109.766 E0.57878
G1 X133.411 Y126.819 E0.56568
G1 X134.633 Y127.190 E0.04004
G1 X135.650 Y127.733 E0.03615
G1 X136.542 Y128.466 E0.03619
G1 X137.273 Y129.358 E0.03617
G1 X137.817 Y130.376 E0.03618
G1 X138.152 Y131.480 E0.03619
G1 X138.265 Y132.629 E0.03619
G1 X138.152 Y133.778 E0.03619
G1 X137.817 Y134.882 E0.03619
G1 X137.273 Y135.900 E0.03618
G1 X136.542 Y136.793 E0.03619
G1 X135.650 Y137.526 E0.03618
G1 X134.633 Y138.069 E0.03615
G1 X133.530 Y138.404 E0.03616
G1 X132.382 Y138.517 E0.03616
G1 X131.233 Y138.404 E0.03619
G1 X130.130 Y138.069 E0.03616
G1 X129.113 Y137.526 E0.03615
G1 X128.222 Y136.793 E0.03618
G1 X127.490 Y135.900 E0.03619
G1 X126.946 Y134.882 E0.03618
G1 X126.611 Y133.778 E0.03619
G1 X126.498 Y132.629 E0.03619
G1 X126.611 Y131.480 E0.03619
G1 X126.946 Y130.376 E0.03619
G1 X127.490 Y129.358 E0.03618
G1 X128.221 Y128.466 E0.03617
G1 X129.113 Y127.733 E0.03619
G1 X130.130 Y127.190 E0.03615
G1 X131.352 Y126.819 E0.04004
G1 X125.459 Y109.766 E0.56568
G1 X106.994 Y109.094 E0.57933
G1 X106.499 Y109.082 E0.01553
G1 X105.994 Y109.096 E0.01585
G1 X105.019 Y109.222 E0.03084
G1 X104.614 Y109.207 E0.01270
G1 X104.942 Y108.938 E0.01331
G1 X105.814 Y108.435 E0.03155
G1 X106.619 Y107.818 E0.03180
G1 X121.166 Y95.866 E0.59034
G1 X116.045 Y77.094 E0.61010
G1 X115.907 Y76.614 E0.01567
G1 X115.737 Y76.134 E0.01595
G1 X115.330 Y75.233 E0.03100
G1 X115.230 Y74.866 E0.01193
G1 X115.552 Y75.095 E0.01239
G1 X116.269 Y75.798 E0.03148
G1 X116.669 Y76.125 E0.01617
G1 X117.078 Y76.423 E0.01589
G1 X132.382 Y87.291 E0.58853
G1 X147.685 Y76.423 E0.58851
G1 X148.095 Y76.125 E0.01588
G1 X148.494 Y75.798 E0.01617
G1 X149.211 Y75.095 E0.03148
G1 X149.533 Y74.866 E0.01239
G1 X149.430 Y75.242 E0.01222
G1 X149.019 Y76.152 E0.03131
G1 X148.850 Y76.637 E0.01609
G1 X148.711 Y77.122 E0.01581
G1 X143.612 Y95.808 E0.60733
G1 X143.388 Y96.208 F10800.000
;WIPE_START
G1 F8640.000
G1 X146.150 Y97.905 E-0.76000
;WIPE_END
G1 E-0.04000 F2100.000
G1 Z0.600 F10800.000
G1 X153.980 Y105.032
G1 Z0.200
G1 E0.80000 F2100.000
;TYPE:Solid infill
;WIDTH:0.420356
G1 F1200.000
G1 X157.396 Y108.447 E0.15161
G1 X156.881 Y108.466 E0.01617
G1 X152.220 Y103.805 E0.20690
G1 X149.228 Y101.347 E0.12151
G1 X156.366 Y108.485 E0.31682
G1 X155.851 Y108.504 E0.01617
G1 X145.005 Y97.658 E0.48137
;WIPE_START
G1 F8640.000
G1 X147.333 Y99.985 E-0.76000
;WIPE_END
G1 E-0.04000 F2100.000
G1 Z0.600 F10800.000
G1 X148.155 Y77.321
G1 Z0.200
G1 E0.80000 F2100.000
G1 F1200.000
G1 X147.908 Y77.074 E0.01096
G1 X147.596 Y77.296 E0.01201
G1 X147.902 Y77.602 E0.01360
G1 X147.788 Y78.022 E0.01364
G1 X147.284 Y77.518 E0.02237
G1 X146.971 Y77.739 E0.01201
G1 X147.673 Y78.441 E0.03114
G1 X147.558 Y78.860 E0.01364
G1 X146.659 Y77.961 E0.03991
G1 X146.347 Y78.183 E0.01201
G1 X147.444 Y79.279 E0.04868
G1 X147.329 Y79.699 E0.01364
G1 X146.035 Y78.404 E0.05745
G1 X145.723 Y78.626 E0.01201
G1 X147.215 Y80.118 E0.06622
G1 X147.100 Y80.537 E0.01364
G1 X145.411 Y78.848 E0.07499
G1 X145.099 Y79.069 E0.01201
G1 X146.986 Y80.956 E0.08376
G1 X146.871 Y81.376 E0.01364
G1 X144.787 Y79.291 E0.09252
G1 X144.474 Y79.513 E0.01201
G1 X146.757 Y81.795 E0.10129
G1 X146.642 Y82.214 E0.01364
G1 X144.162 Y79.734 E0.11006
G1 X143.850 Y79.956 E0.01201
G1 X146.528 Y82.633 E0.11883
G1 X146.413 Y83.053 E0.01364
G1 X143.538 Y80.178 E0.12760
G1 X143.226 Y80.399 E0.01201
G1 X146.299 Y83.472 E0.13637
G1 X146.184 Y83.891 E0.01364
G1 X142.914 Y80.621 E0.14514
G1 X142.602 Y80.842 E0.01201
G1 X146.070 Y84.310 E0.15391
G1 X145.955 Y84.730 E0.01364
G1 X142.290 Y81.064 E0.16268
G1 X141.978 Y81.286 E0.01201
G1 X145.840 Y85.149 E0.17145
G1 X145.726 Y85.568 E0.01364
G1 X141.665 Y81.507 E0.18022
G1 X141.353 Y81.729 E0.01201
G1 X145.611 Y85.987 E0.18899
G1 X145.497 Y86.406 E0.01364
G1 X141.041 Y81.951 E0.19776
G1 X140.729 Y82.172 E0.01201
G1 X145.382 Y86.826 E0.20653
G1 X145.268 Y87.245 E0.01364
G1 X140.417 Y82.394 E0.21530
G1 X140.105 Y82.616 E0.01201
G1 X145.153 Y87.664 E0.22407
G1 X145.039 Y88.083 E0.01364
G1 X139.793 Y82.837 E0.23284
G1 X139.481 Y83.059 E0.01201
G1 X144.924 Y88.503 E0.24161
G1 X144.810 Y88.922 E0.01364
G1 X139.168 Y83.281 E0.25038
G1 X138.856 Y83.502 E0.01201
G1 X144.695 Y89.341 E0.25915
G1 X144.581 Y89.760 E0.01364
G1 X138.544 Y83.724 E0.26792
G1 X138.232 Y83.946 E0.01201
G1 X144.466 Y90.180 E0.27669
M73 P9 R41
M73 Q9 S41
G1 X144.352 Y90.599 E0.01364
G1 X137.920 Y84.167 E0.28546
G1 X137.608 Y84.389 E0.01201
G1 X144.237 Y91.018 E0.29423
G1 X144.123 Y91.437 E0.01364
G1 X137.296 Y84.611 E0.30300
G1 X136.984 Y84.832 E0.01201
G1 X144.008 Y91.857 E0.31177
G1 X143.893 Y92.276 E0.01364
G1 X136.672 Y85.054 E0.32054
G1 X136.359 Y85.276 E0.01201
G1 X143.779 Y92.695 E0.32931
M73 P9 R40
G1 X143.664 Y93.114 E0.01364
G1 X136.047 Y85.497 E0.33808
G1 X135.735 Y85.719 E0.01201
G1 X143.550 Y93.534 E0.34684
G1 X143.435 Y93.953 E0.01364
G1 X135.423 Y85.941 E0.35561
G1 X135.111 Y86.162 E0.01201
G1 X143.321 Y94.372 E0.36438
G1 X143.206 Y94.791 E0.01364
G1 X134.799 Y86.384 E0.37315
G1 X134.487 Y86.606 E0.01201
G1 X143.092 Y95.211 E0.38192
G1 X142.977 Y95.630 E0.01364
G1 X134.175 Y86.827 E0.39069
G1 X133.862 Y87.049 E0.01201
G1 X155.336 Y108.522 E0.95308
G1 X154.821 Y108.541 E0.01617
G1 X133.550 Y87.271 E0.94407
G1 X133.238 Y87.492 E0.01201
G1 X154.306 Y108.560 E0.93507
G1 X153.791 Y108.579 E0.01617
G1 X132.926 Y87.714 E0.92606
G1 X132.614 Y87.935 E0.01201
G1 X153.276 Y108.597 E0.91705
G1 X152.761 Y108.616 E0.01617
M73 Q9 S40
G1 X131.909 Y87.764 E0.92549
G1 X130.067 Y86.456 E0.07088
G1 X152.246 Y108.635 E0.98436
G1 X151.731 Y108.654 E0.01617
G1 X128.226 Y85.149 E1.04323
G1 X126.385 Y83.841 E0.07088
G1 X151.216 Y108.672 E1.10210
G1 X150.701 Y108.691 E0.01617
G1 X124.543 Y82.534 E1.16097
G1 X122.702 Y81.226 E0.07088
G1 X150.186 Y108.710 E1.21984
G1 X149.671 Y108.729 E0.01617
G1 X120.860 Y79.918 E1.27871
M73 P10 R40
M73 Q10 S40
G1 X119.019 Y78.611 E0.07088
G1 X149.156 Y108.747 E1.33758
G1 X148.641 Y108.766 E0.01617
G1 X117.178 Y77.303 E1.39645
G1 X116.692 Y76.958 E0.01870
G1 X116.839 Y77.498 E0.01758
G1 X148.126 Y108.785 E1.38861
G1 X147.611 Y108.804 E0.01617
G1 X117.039 Y78.232 E1.35686
G1 X117.240 Y78.966 E0.02388
G1 X147.096 Y108.822 E1.32512
G1 X146.581 Y108.841 E0.01617
G1 X117.440 Y79.701 E1.29337
