; generated by PrusaSlicer 2.3.0+win64 on 2021-06-23 at 22:12:00 UTC

; 

; external perimeters extrusion width = 0.45mm
; perimeters extrusion width = 0.45mm
; infill extrusion width = 0.45mm
; solid infill extrusion width = 0.45mm
; top infill extrusion width = 0.40mm
; first layer extrusion width = 0.42mm

M73 P0 R98
M73 Q0 S99
M201 X1000 Y1000 Z200 E5000 ; sets maximum accelerations, mm/sec^2
M203 X200 Y200 Z12 E120 ; sets maximum feedrates, mm/sec
M204 P1250 R1250 T1250 ; sets acceleration (P, T) and retract acceleration (R), mm/sec^2
M205 X8.00 Y8.00 Z0.40 E4.50 ; sets the jerk limits, mm/sec
M205 S0 T0 ; sets the minimum extruding and travel feed rate, mm/sec
M107
;TYPE:Custom
M862.3 P "MK3S" ; printer model check
M862.1 P0.4 ; nozzle diameter check
M115 U3.9.2 ; tell printer latest fw version
G90 ; use absolute coordinates
M83 ; extruder relative mode
M104 S215 ; set extruder temp
M140 S60 ; set bed temp
M190 S60 ; wait for bed temp
M109 S215 ; wait for extruder temp
G28 W ; home all without mesh bed level
G80 ; mesh bed leveling
G1 Y-3.0 F1000.0 ; go outside print area
G92 E0.0
G1 X60.0 E9.0 F1000.0 ; intro line
G1 X100.0 E12.5 F1000.0 ; intro line
G92 E0.0
M221 S95

; Don't change E values below. Excessive value can damage the printer.
M907 E430 ; set extruder motor current
G21 ; set units to millimeters
G90 ; use absolute coordinates
M83 ; use relative distances for extrusion
M900 K0.05 ; Filament gcode LA 1.5
M900 K30 ; Filament gcode LA 1.0
;LAYER_CHANGE
;Z:0.2
;HEIGHT:0.2
;BEFORE_LAYER_CHANGE
G92 E0.0
;0.2


G1 E-0.80000 F2100.000
G1 Z0.400 F10800.000
;AFTER_LAYER_CHANGE
;0.2
G1 X61.588 Y52.958
G1 Z0.200
G1 E0.80000 F2100.000
M204 S1000
;TYPE:Skirt
;WIDTH:0.42
G1 F1200.000
G1 X66.995 Y46.993 E0.25243
G1 X72.960 Y41.586 E0.25241
G1 X79.426 Y36.791 E0.25240
G1 X86.331 Y32.653 E0.25243
G1 X93.608 Y29.211 E0.25240
G1 X101.188 Y26.498 E0.25242
G1 X108.998 Y24.542 E0.25242
G1 X116.961 Y23.362 E0.25241
G1 X125.005 Y22.967 E0.25253
G1 X133.042 Y23.362 E0.25229
G1 X141.005 Y24.543 E0.25240
G1 X148.814 Y26.499 E0.25242
G1 X156.394 Y29.212 E0.25243
M73 Q0 S98
G1 X163.671 Y32.654 E0.25240
G1 X170.577 Y36.792 E0.25241
G1 X177.042 Y41.588 E0.25240
G1 X183.007 Y46.995 E0.25243
G1 X188.414 Y52.960 E0.25241
G1 X193.207 Y59.422 E0.25229
G1 X197.347 Y66.331 E0.25255
G1 X200.789 Y73.608 E0.25240
G1 X203.502 Y81.188 E0.25242
G1 X205.458 Y88.998 E0.25242
G1 X206.638 Y96.961 E0.25241
G1 X207.033 Y105.001 E0.25242
G1 X206.638 Y113.042 E0.25241
G1 X205.457 Y121.005 E0.25240
G1 X203.501 Y128.814 E0.25242
G1 X200.790 Y136.391 E0.25231
G1 X197.346 Y143.671 E0.25252
G1 X193.208 Y150.577 E0.25241
G1 X188.412 Y157.042 E0.25240
G1 X183.005 Y163.007 E0.25243
G1 X177.040 Y168.414 E0.25241
G1 X170.574 Y173.209 E0.25240
G1 X163.669 Y177.347 E0.25243
G1 X156.392 Y180.789 E0.25240
G1 X148.812 Y183.502 E0.25242
G1 X141.002 Y185.458 E0.25242
G1 X133.039 Y186.638 E0.25241
G1 X124.999 Y187.033 E0.25242
G1 X116.958 Y186.638 E0.25241
G1 X108.995 Y185.457 E0.25240
G1 X101.186 Y183.501 E0.25242
G1 X93.606 Y180.788 E0.25243
G1 X86.329 Y177.346 E0.25240
G1 X79.423 Y173.208 E0.25241
G1 X72.958 Y168.412 E0.25240
G1 X66.993 Y163.005 E0.25243
G1 X61.586 Y157.040 E0.25241
G1 X56.791 Y150.574 E0.25240
G1 X52.653 Y143.669 E0.25243
G1 X49.211 Y136.392 E0.25239
G1 X46.498 Y128.812 E0.25242
G1 X44.542 Y121.002 E0.25242
G1 X43.362 Y113.039 E0.25241
G1 X42.967 Y104.999 E0.25242
G1 X43.362 Y96.958 E0.25241
G1 X44.543 Y88.995 E0.25240
G1 X46.499 Y81.186 E0.25242
G1 X49.212 Y73.606 E0.25243
G1 X52.654 Y66.329 E0.25240
G1 X56.792 Y59.423 E0.25241
G1 X61.552 Y53.006 E0.25052
; printing object pop filter (1).stl id:0 copy 0
;WIPE_START
G1 F8640.000
G1 X63.761 Y50.566 E-0.76000
;WIPE_END
G1 E-0.04000 F2100.000
G1 Z0.600 F10800.000
G1 X66.662 Y57.123
G1 Z0.200
G1 E0.80000 F2100.000
;TYPE:Perimeter
G1 F1200.000
G1 X71.636 Y51.636 E0.23221
G1 X77.123 Y46.662 E0.23221
G1 X83.072 Y42.251 E0.23220
G1 X89.424 Y38.442 E0.23223
G1 X96.119 Y35.276 E0.23221
G1 X103.093 Y32.781 E0.23222
G1 X110.277 Y30.982 E0.23221
G1 X117.603 Y29.895 E0.23221
G1 X125.000 Y29.532 E0.23221
G1 X132.397 Y29.895 E0.23221
G1 X139.723 Y30.982 E0.23221
G1 X146.907 Y32.781 E0.23221
G1 X153.881 Y35.276 E0.23222
G1 X160.576 Y38.442 E0.23221
G1 X166.928 Y42.251 E0.23223
G1 X172.877 Y46.662 E0.23220
G1 X178.364 Y51.636 E0.23221
G1 X183.338 Y57.123 E0.23221
G1 X187.749 Y63.072 E0.23220
G1 X191.558 Y69.424 E0.23223
G1 X194.724 Y76.119 E0.23221
G1 X197.219 Y83.093 E0.23222
G1 X199.018 Y90.277 E0.23221
G1 X200.105 Y97.603 E0.23221
G1 X200.468 Y105.000 E0.23221
G1 X200.105 Y112.397 E0.23221
G1 X199.018 Y119.723 E0.23221
G1 X197.219 Y126.907 E0.23221
G1 X194.724 Y133.881 E0.23222
G1 X191.558 Y140.576 E0.23221
G1 X187.749 Y146.928 E0.23223
G1 X183.338 Y152.877 E0.23220
G1 X178.364 Y158.364 E0.23221
M73 P0 R97
G1 X172.877 Y163.338 E0.23221
G1 X166.928 Y167.749 E0.23220
G1 X160.576 Y171.558 E0.23223
G1 X153.881 Y174.724 E0.23221
G1 X146.907 Y177.219 E0.23222
G1 X139.723 Y179.018 E0.23221
G1 X132.397 Y180.105 E0.23221
G1 X125.000 Y180.468 E0.23221
G1 X117.603 Y180.105 E0.23221
G1 X110.277 Y179.018 E0.23221
G1 X103.093 Y177.219 E0.23221
G1 X96.119 Y174.724 E0.23222
G1 X89.424 Y171.558 E0.23221
G1 X83.072 Y167.749 E0.23223
G1 X77.123 Y163.338 E0.23220
G1 X71.636 Y158.364 E0.23221
G1 X66.662 Y152.877 E0.23221
G1 X62.251 Y146.928 E0.23220
G1 X58.442 Y140.576 E0.23223
G1 X55.276 Y133.881 E0.23221
G1 X52.781 Y126.907 E0.23222
G1 X50.982 Y119.723 E0.23221
G1 X49.895 Y112.397 E0.23221
G1 X49.532 Y105.000 E0.23221
G1 X49.895 Y97.603 E0.23221
G1 X50.982 Y90.277 E0.23221
G1 X52.781 Y83.093 E0.23221
G1 X55.276 Y76.119 E0.23222
G1 X58.442 Y69.424 E0.23221
G1 X62.251 Y63.072 E0.23223
G1 X66.626 Y57.171 E0.23032
G1 X66.929 Y57.396 F10800.000
;TYPE:External perimeter
G1 F1200.000
G1 X71.903 Y51.903 E0.23235
G1 X77.363 Y46.954 E0.23105
G1 X83.282 Y42.565 E0.23104
G1 X89.602 Y38.775 E0.23107
G1 X96.264 Y35.625 E0.23104
G1 X103.202 Y33.143 E0.23106
M73 P1 R97
M73 Q1 S98
G1 X110.351 Y31.352 E0.23105
G1 X117.640 Y30.270 E0.23105
G1 X125.000 Y29.909 E0.23105
G1 X132.360 Y30.270 E0.23105
G1 X139.649 Y31.352 E0.23105
G1 X146.798 Y33.143 E0.23105
G1 X153.736 Y35.625 E0.23106
G1 X160.398 Y38.775 E0.23104
G1 X166.718 Y42.565 E0.23107
G1 X172.637 Y46.954 E0.23104
G1 X178.097 Y51.903 E0.23105
G1 X183.046 Y57.363 E0.23105
G1 X187.435 Y63.282 E0.23104
G1 X191.225 Y69.602 E0.23107
G1 X194.375 Y76.264 E0.23104
G1 X196.857 Y83.202 E0.23106
G1 X198.648 Y90.351 E0.23105
G1 X199.730 Y97.640 E0.23105
G1 X200.091 Y105.000 E0.23105
G1 X199.730 Y112.360 E0.23105
G1 X198.648 Y119.649 E0.23105
G1 X196.857 Y126.798 E0.23105
G1 X194.375 Y133.736 E0.23106
G1 X191.225 Y140.398 E0.23104
G1 X187.435 Y146.718 E0.23107
G1 X183.046 Y152.637 E0.23104
G1 X178.097 Y158.097 E0.23105
G1 X172.637 Y163.046 E0.23105
G1 X166.718 Y167.435 E0.23104
G1 X160.398 Y171.225 E0.23107
G1 X153.736 Y174.375 E0.23104
G1 X146.798 Y176.857 E0.23106
G1 X139.649 Y178.648 E0.23105
G1 X132.360 Y179.730 E0.23105
G1 X125.000 Y180.091 E0.23105
G1 X117.640 Y179.730 E0.23105
M73 Q1 S97
G1 X110.351 Y178.648 E0.23105
G1 X103.202 Y176.857 E0.23105
G1 X96.264 Y174.375 E0.23106
G1 X89.602 Y171.225 E0.23104
G1 X83.282 Y167.435 E0.23107
G1 X77.363 Y163.046 E0.23104
G1 X71.903 Y158.097 E0.23105
G1 X66.954 Y152.637 E0.23105
G1 X62.565 Y146.718 E0.23104
G1 X58.775 Y140.398 E0.23107
G1 X55.625 Y133.736 E0.23104
G1 X53.143 Y126.798 E0.23106
G1 X51.352 Y119.649 E0.23105
G1 X50.270 Y112.360 E0.23105
G1 X49.909 Y105.000 E0.23105
G1 X50.270 Y97.640 E0.23105
G1 X51.352 Y90.351 E0.23105
G1 X53.143 Y83.202 E0.23105
G1 X55.625 Y76.264 E0.23106
G1 X58.775 Y69.602 E0.23104
G1 X62.565 Y63.282 E0.23107
G1 X66.893 Y57.444 E0.22786
G1 X66.788 Y57.022 F10800.000
;WIPE_START
G1 F8640.000
G1 X69.101 Y55.003 E-0.76000
;WIPE_END
G1 E-0.04000 F2100.000
G1 Z0.600 F10800.000
G1 X64.034 Y54.967
G1 Z0.200
G1 E0.80000 F2100.000
;TYPE:Perimeter
G1 F1200.000
G1 X69.232 Y49.232 E0.24268
G1 X74.967 Y44.034 E0.24268
G1 X81.183 Y39.423 E0.24266
G1 X87.822 Y35.445 E0.24269
G1 X94.818 Y32.135 E0.24267
G1 X102.106 Y29.527 E0.24268
G1 X109.614 Y27.647 E0.24268
G1 X117.269 Y26.512 E0.24265
G1 X125.087 Y26.137 E0.24542
G1 X132.731 Y26.512 E0.23994
G1 X140.386 Y27.647 E0.24266
G1 X147.894 Y29.527 E0.24268
G1 X155.182 Y32.135 E0.24268
G1 X162.178 Y35.445 E0.24267
G1 X168.817 Y39.423 E0.24269
G1 X175.033 Y44.034 E0.24266
G1 X180.768 Y49.232 E0.24268
G1 X185.966 Y54.967 E0.24268
G1 X190.577 Y61.183 E0.24266
G1 X194.555 Y67.822 E0.24269
G1 X197.865 Y74.818 E0.24267
G1 X200.473 Y82.106 E0.24268
G1 X202.353 Y89.614 E0.24268
G1 X203.488 Y97.269 E0.24266
G1 X203.868 Y105.000 E0.24268
G1 X203.488 Y112.731 E0.24268
G1 X202.353 Y120.386 E0.24266
G1 X200.473 Y127.894 E0.24268
G1 X197.865 Y135.182 E0.24268
G1 X194.555 Y142.178 E0.24267
G1 X190.577 Y148.817 E0.24269
G1 X185.966 Y155.033 E0.24266
G1 X180.768 Y160.768 E0.24268
G1 X175.033 Y165.966 E0.24268
G1 X168.817 Y170.577 E0.24266
G1 X162.178 Y174.555 E0.24269
G1 X155.182 Y177.865 E0.24267
G1 X147.894 Y180.473 E0.24268
G1 X140.386 Y182.353 E0.24268
G1 X132.731 Y183.488 E0.24266
G1 X125.000 Y183.868 E0.24268
G1 X117.269 Y183.488 E0.24268
G1 X109.614 Y182.353 E0.24266
G1 X102.106 Y180.473 E0.24268
G1 X94.818 Y177.865 E0.24268
G1 X87.822 Y174.555 E0.24267
G1 X81.183 Y170.577 E0.24269
G1 X74.967 Y165.966 E0.24266
G1 X69.232 Y160.768 E0.24268
G1 X64.034 Y155.033 E0.24268
G1 X59.423 Y148.817 E0.24266
G1 X55.445 Y142.178 E0.24269
G1 X52.135 Y135.182 E0.24267
G1 X49.527 Y127.894 E0.24268
G1 X47.647 Y120.386 E0.24268
G1 X46.512 Y112.731 E0.24266
G1 X46.132 Y105.000 E0.24268
G1 X46.512 Y97.269 E0.24268
G1 X47.647 Y89.614 E0.24266
G1 X49.527 Y82.106 E0.24268
G1 X52.135 Y74.818 E0.24268
G1 X55.445 Y67.822 E0.24267
G1 X59.423 Y61.183 E0.24269
M73 P1 R96
G1 X63.998 Y55.015 E0.24078
G1 X63.695 Y54.790 F10800.000
;TYPE:External perimeter
G1 F1200.000
G1 X68.965 Y48.965 E0.24630
G1 X74.727 Y43.742 E0.24385
G1 X80.973 Y39.109 E0.24382
G1 X87.644 Y35.112 E0.24385
G1 X94.674 Y31.786 E0.24383
G1 X101.996 Y29.166 E0.24384
G1 X109.540 Y27.276 E0.24384
G1 X117.232 Y26.136 E0.24382
G1 X125.088 Y25.759 E0.24659
G1 X132.768 Y26.136 E0.24109
G1 X140.460 Y27.276 E0.24382
G1 X148.004 Y29.166 E0.24384
G1 X155.326 Y31.786 E0.24384
G1 X162.356 Y35.112 E0.24383
G1 X169.027 Y39.109 E0.24385
G1 X175.273 Y43.742 E0.24382
G1 X181.035 Y48.965 E0.24385
G1 X186.258 Y54.727 E0.24385
G1 X190.891 Y60.973 E0.24382
G1 X194.888 Y67.644 E0.24385
G1 X198.214 Y74.674 E0.24383
G1 X200.834 Y81.996 E0.24385
G1 X202.723 Y89.540 E0.24384
G1 X203.864 Y97.232 E0.24382
G1 X204.245 Y105.000 E0.24384
G1 X203.864 Y112.768 E0.24384
G1 X202.723 Y120.460 E0.24382
G1 X200.834 Y128.004 E0.24384
G1 X198.214 Y135.326 E0.24384
G1 X194.888 Y142.356 E0.24383
G1 X190.891 Y149.027 E0.24385
G1 X186.258 Y155.273 E0.24382
M73 P2 R96
G1 X181.035 Y161.035 E0.24385
M73 Q2 S97
G1 X175.273 Y166.258 E0.24385
G1 X169.027 Y170.891 E0.24382
G1 X162.356 Y174.888 E0.24385
G1 X155.326 Y178.214 E0.24383
G1 X148.004 Y180.834 E0.24384
G1 X140.460 Y182.723 E0.24384
G1 X132.768 Y183.864 E0.24382
G1 X125.000 Y184.245 E0.24384
G1 X117.232 Y183.864 E0.24384
G1 X109.540 Y182.723 E0.24382
G1 X101.996 Y180.834 E0.24384
G1 X94.674 Y178.214 E0.24384
G1 X87.644 Y174.888 E0.24383
G1 X80.973 Y170.891 E0.24385
G1 X74.727 Y166.258 E0.24382
G1 X68.965 Y161.035 E0.24385
G1 X63.742 Y155.273 E0.24385
G1 X59.109 Y149.027 E0.24382
G1 X55.112 Y142.356 E0.24385
G1 X51.786 Y135.326 E0.24383
G1 X49.166 Y128.004 E0.24384
G1 X47.277 Y120.460 E0.24384
G1 X46.136 Y112.768 E0.24382
G1 X45.755 Y105.000 E0.24384
G1 X46.136 Y97.232 E0.24384
G1 X47.276 Y89.540 E0.24382
G1 X49.166 Y81.996 E0.24384
G1 X51.786 Y74.674 E0.24384
G1 X55.112 Y67.644 E0.24383
G1 X59.109 Y60.973 E0.24385
G1 X63.659 Y54.838 E0.23948
G1 X64.090 Y54.855 F10800.000
;WIPE_START
G1 F8640.000
G1 X65.866 Y52.396 E-0.76000
;WIPE_END
G1 E-0.04000 F2100.000
G1 Z0.600 F10800.000
G1 X183.019 Y51.884
M73 Q2 S96
G1 Z0.200
G1 E0.80000 F2100.000
;TYPE:Solid infill
;WIDTH:0.420731
G1 F1200.000
G1 X180.565 Y49.430 E0.10905
G1 X174.853 Y44.252 E0.24219
G1 X185.748 Y55.147 E0.48405
G1 X187.282 Y57.215 E0.08088
G1 X172.785 Y42.718 E0.64406
G1 X170.717 Y41.184 E0.08088
G1 X188.816 Y59.283 E0.80408
G1 X190.345 Y61.347 E0.08071
G1 X168.653 Y39.655 E0.96375
G1 X167.319 Y38.855 E0.04883
G1 X191.145 Y62.681 E1.05849
G1 X191.944 Y64.014 E0.04883
G1 X165.986 Y38.056 E1.15323
G1 X164.653 Y37.257 E0.04883
G1 X192.743 Y65.347 E1.24797
G1 X193.542 Y66.681 E0.04883
G1 X181.155 Y54.294 E0.55029
G1 X178.564 Y51.436 E0.12121
G1 X175.706 Y48.845 E0.12121
G1 X163.319 Y36.458 E0.55029
G1 X162.000 Y35.673 E0.04823
G1 X171.948 Y45.621 E0.44195
G1 X169.881 Y44.088 E0.08084
G1 X160.986 Y35.194 E0.39517
G1 X159.972 Y34.714 E0.03524
G1 X167.814 Y42.556 E0.34838
G1 X167.085 Y42.015 E0.02849
G1 X166.221 Y41.497 E0.03165
G1 X158.958 Y34.234 E0.32268
G1 X157.944 Y33.755 E0.03524
G1 X164.887 Y40.697 E0.30845
G1 X163.553 Y39.898 E0.04887
G1 X156.930 Y33.275 E0.29422
G1 X155.916 Y32.796 E0.03524
G1 X162.218 Y39.098 E0.27999
G1 X160.884 Y38.298 E0.04887
G1 X154.933 Y32.347 E0.26439
G1 X154.101 Y32.049 E0.02776
G1 X159.828 Y37.776 E0.25445
G1 X158.815 Y37.297 E0.03523
G1 X153.269 Y31.751 E0.24638
G1 X152.437 Y31.453 E0.02776
G1 X157.801 Y36.817 E0.23831
G1 X156.787 Y36.338 E0.03523
G1 X151.605 Y31.155 E0.23024
G1 X150.773 Y30.858 E0.02776
G1 X155.773 Y35.858 E0.22216
G1 X154.760 Y35.379 E0.03523
G1 X149.941 Y30.560 E0.21409
G1 X149.109 Y30.262 E0.02776
G1 X153.789 Y34.943 E0.20796
G1 X152.958 Y34.645 E0.02776
G1 X148.277 Y29.964 E0.20797
G1 X147.812 Y29.798 E0.01550
G1 X147.497 Y29.719 E0.01020
G1 X152.126 Y34.348 E0.20564
G1 X151.294 Y34.050 E0.02776
G1 X146.784 Y29.541 E0.20035
G1 X146.071 Y29.362 E0.02309
G1 X150.462 Y33.753 E0.19506
G1 X149.630 Y33.455 E0.02776
G1 X145.359 Y29.184 E0.18977
G1 X144.646 Y29.005 E0.02309
G1 X148.798 Y33.158 E0.18448
G1 X147.966 Y32.860 E0.02776
G1 X143.933 Y28.827 E0.17919
G1 X143.220 Y28.648 E0.02309
G1 X147.134 Y32.562 E0.17390
G1 X146.401 Y32.363 E0.02388
G1 X142.507 Y28.470 E0.17298
G1 X141.794 Y28.291 E0.02309
G1 X145.688 Y32.185 E0.17298
G1 X144.975 Y32.006 E0.02309
G1 X141.082 Y28.112 E0.17298
G1 X140.369 Y27.934 E0.02309
G1 X144.262 Y31.827 E0.17298
G1 X143.549 Y31.649 E0.02309
G1 X139.737 Y27.836 E0.16938
G1 X139.110 Y27.743 E0.01992
G1 X142.837 Y31.470 E0.16558
G1 X142.124 Y31.292 E0.02309
G1 X138.482 Y27.650 E0.16178
G1 X137.855 Y27.557 E0.01992
G1 X141.411 Y31.113 E0.15798
G1 X140.698 Y30.935 E0.02309
G1 X137.228 Y27.464 E0.15418
G1 X136.600 Y27.371 E0.01992
G1 X139.985 Y30.756 E0.15038
G1 X139.778 Y30.704 E0.00671
G1 X139.333 Y30.638 E0.01414
G1 X135.973 Y27.278 E0.14927
G1 X135.346 Y27.185 E0.01992
G1 X138.706 Y30.545 E0.14927
G1 X138.078 Y30.452 E0.01993
G1 X134.719 Y27.092 E0.14926
G1 X134.091 Y26.999 E0.01992
G1 X137.451 Y30.359 E0.14925
G1 X136.823 Y30.266 E0.01993
G1 X133.464 Y26.907 E0.14924
G1 X132.837 Y26.814 E0.01992
G1 X136.196 Y30.173 E0.14924
G1 X135.568 Y30.079 E0.01993
G1 X132.261 Y26.772 E0.14694
G1 X131.699 Y26.744 E0.01767
G1 X134.941 Y29.986 E0.14403
G1 X134.313 Y29.893 E0.01993
G1 X131.137 Y26.717 E0.14112
G1 X130.575 Y26.689 E0.01767
G1 X133.686 Y29.800 E0.13820
G1 X133.058 Y29.707 E0.01993
G1 X130.013 Y26.662 E0.13529
G1 X129.451 Y26.634 E0.01767
G1 X132.431 Y29.614 E0.13238
G1 X131.868 Y29.586 E0.01769
G1 X128.889 Y26.607 E0.13235
G1 X128.328 Y26.579 E0.01767
G1 X131.307 Y29.558 E0.13235
G1 X130.745 Y29.530 E0.01767
G1 X127.766 Y26.551 E0.13235
G1 X127.204 Y26.524 E0.01767
G1 X130.183 Y29.503 E0.13235
G1 X129.621 Y29.475 E0.01767
G1 X126.642 Y26.496 E0.13235
G1 X126.080 Y26.469 E0.01767
G1 X129.059 Y29.448 E0.13235
G1 X128.497 Y29.420 E0.01767
G1 X125.518 Y26.441 E0.13235
G1 X125.087 Y26.420 E0.01355
G1 X124.968 Y26.426 E0.00374
G1 X127.935 Y29.393 E0.13181
G1 X127.373 Y29.365 E0.01767
G1 X124.459 Y26.450 E0.12950
G1 X123.949 Y26.475 E0.01604
G1 X126.812 Y29.337 E0.12719
G1 X126.250 Y29.310 E0.01767
G1 X123.439 Y26.499 E0.12488
G1 X122.929 Y26.523 E0.01604
G1 X125.688 Y29.282 E0.12257
M73 P2 R95
